!!!!SEGMENT: pl-cz--iii-116--004_dankowski-adalbert--vesperae-solenne-nisi-dominus.krn
!!!cenid: 18xx:820
!!!COM: Dankowski, Adalbert
!!!COM-rismID: pe30000793
!!!CDT: ~1760-~1836
!!!CNT: Polish
!!!OPR: Vesperae Solenne
!!!OTL: Nisi Dominus
!!!OMV: 004
!!!PDT: 1839
!!!AGN: Sacred; Vespers
!!!SMS-siglum: PL-CZ
!!!SMS-shelfmark: III-116
!!!SMS-shelfwork: 001-004 M
!!!SMS-variant:
!!!SMS-altvar:
!!!NIFC-rismSourceID: 300000114
!!!NIFC-rismChildID: 300000114
!!!NIFC-islandoraID: pl-cz:34584
!!!URL-pdf-islandora: https://repozytorium.nifc.pl/islandora/object/pl-cz%3A34584/datastream/PDF/view
!!!URL-scan: https://polish.musicsources.pl/pl/lokalizacje/galeria/rekopisy/6833/1 @EN{Scan on Polish Music Sources Website} @PL{Skany w portalu Dziedzictwo Muzyki Polskiej w otwartym dostępie}
!!!IIIF:
!!!ONB-nifc: UWAGA: części Vesperae: Dixit Dominus, Laudate pueri, Laetatus sum, Nisi Dominus, Magnificat
!!!OMD:
!!!OMD-mod: Moderato
!!!AIN: 1 alto 1 bass 1 clrno 2 cor 1 organ 1 soprn 1 tenor 1 timpa 2 violn
!!!key: A
**kern	**fba	**dynam	**kern	**dynam	**kern	**dynam	**kern	**text	**kern	**text	**kern	**text	**kern	**text	**kern	**kern	**kern	**kern
*part11	*part11	*part11	*part10	*part10	*part9	*part9	*part8	*part8	*part7	*part7	*part6	*part6	*part5	*part5	*part4	*part3	*part2	*part1
*group5	*	*	*group4	*	*group4	*	*group3	*group3	*group3	*group3	*group3	*group3	*group3	*group3	*group2	*group1	*group1	*group1
*staff11	*staff11	*	*staff10	*	*staff9	*	*staff8	*staff8	*staff7	*staff7	*staff6	*staff6	*staff5	*staff5	*staff4	*staff3	*staff2	*staff1
*I"Organ	*	*	*I"Violino 2do	*	*I"Violino 1mo	*	*I"Baſso	*	*I"Tenor	*	*I"Alto.	*	*I"Cant	*	*I"Tympan	*I"Clarino Principalo.	*I"Corno. 2do ex D.	*I"Corno Obligato 1mo ex D
*mI"Organo	*	*	*mI"Violino II	*	*mI"Violino I	*	*mI"Basso	*	*mI"Tenore	*	*mI"Alto	*	*mI"Soprano	*	*mI"Timpano	*mI"Clarino principale in D	*mI"Corno II in D	*mI"Corno I in D
*I'org	*	*	*I'vl 2	*	*I'vl 1	*	*I'B	*	*I'T	*	*I'A	*	*I'S	*	*I'timp	*I'clno	*I'cor 2	*I'cor 1
*	*	*	*mI'vl II	*	*mI'vl I	*	*	*	*	*	*	*	*	*	*	*mI'clno princ in D	*mI'cor II in D	*mI'cor I in D
*Iorgan	*	*	*Ivioln	*	*Ivioln	*	*Ibass	*	*Itenor	*	*Ialto	*	*Isoprn	*	*Itimpa	*Iclrno	*Icor	*Icor
*ICklav	*	*	*ICstr	*	*ICstr	*	*ICvox	*	*ICvox	*	*ICvox	*	*ICvox	*	*ICidio	*ICbras	*ICbras	*ICbras
*IGcont	*	*	*	*	*	*	*	*	*	*	*	*	*	*	*	*	*	*
*clefF4	*	*	*clefG2	*	*clefG2	*	*clefF4	*	*clefC4	*	*clefC3	*	*clefC1	*	*clefF4	*clefG2	*clefG2	*clefG2
*	*	*	*	*	*	*	*	*	*mclefGv2	*	*mclefG2	*	*mclefG2	*	*	*	*	*
*	*	*	*	*	*	*	*	*	*	*	*	*	*	*	*	*ITrd-1c-2	*ITrd6c10	*ITrd6c10
*	*	*	*	*	*ok[f#g#c#]	*	*	*	*ok[c#f#g#]	*	*	*	*	*	*	*	*	*
*k[f#c#g#]	*	*	*k[f#c#g#]	*	*k[f#c#g#]	*	*k[f#c#g#]	*	*k[f#c#g#]	*	*k[f#c#g#]	*	*k[f#c#g#]	*	*k[]	*k[f#c#g#]	*k[f#c#g#]	*k[f#c#g#]
*A:	*	*	*A:	*	*A:	*	*A:	*	*A:	*	*A:	*	*A:	*	*A:	*A:	*A:	*A:
*M4/4	*	*	*M4/4	*	*M4/4	*	*M4/4	*	*M4/4	*	*M4/4	*	*M4/4	*	*M4/4	*M4/4	*M4/4	*M4/4
*met(c)	*	*	*met(c)	*	*met(c)	*	*met(c)	*	*met(c)	*	*met(c)	*	*met(c)	*	*met(c)	*met(c)	*met(c)	*met(c)
*all\right	*	*	*all\right	*	*all\right	*	*all\right	*	*all\right	*	*all\right	*	*all\right	*	*all\right	*all\right	*all\right	*all\right
!LO:TX:a:t=Moderato:mod=	!	!	!LO:TX:a:t=Moderato:mod=	!	!LO:TX:a:t=Moderato:mod=	!	!LO:TX:a:t=Moderat:mod=	!	!LO:TX:a:t=Moderato:mod=	!	!LO:TX:a:t=Mode:mod=	!	!LO:TX:a:t=Modera.:mod=	!	!LO:TX:a:t=Nisi Dominus Tacet:mod=Tacet	!LO:TX:a:t=Nisi Domi. Tacet:mod=Tacet	!LO:TX:a:t=Nisi Dominu Tacet:mod=Tacet	!LO:TX:a:t=Nisi Tacet:mod=Tacet
8r	.	.	8e/	.	16a\LL	.	8r	.	8r	.	8r	.	8r	.	8ryy	8ryy	8ryy	8ryy
.	.	.	.	.	16b\JJ	.	.	.	.	.	.	.	.	.	.	.	.	.
=1	=1	=1	=1	=1	=1	=1	=1	=1	=1	=1	=1	=1	=1	=1	=1	=1	=1	=1
*2\right	*	*	*2\right	*	*	*	*	*	*	*	*	*	*	*	*	*	*	*
*tremolo	*	*	*	*	*	*	*	*	*	*	*	*	*	*	*	*	*	*
!LO:MO:mod=!null:null	!	!LO:MO:mod=!null:null	!	!	!	!	!	!	!	!	!	!	!	!	!	!	!	!
!LO:TX:a:t=....	!	!LO:DY:b:t=for:rj	!	!	!	!	!	!	!	!	!	!	!	!	!	!	!	!
!	!	!	!LO:SIC:s=(32a\LLL	!	!	!	!	!	!	!	!	!	!	!	!	!	!	!
8A\L	.	f	32a\LLL	.	(32cc#\LLL	.	4r	.	4r	.	4r	.	4r	.	1ryy	1ryy	1ryy	1ryy
.	.	.	32b\	.	32dd\	.	.	.	.	.	.	.	.	.	.	.	.	.
.	.	.	32cc#\	.	32ee\	.	.	.	.	.	.	.	.	.	.	.	.	.
!	!	!	!LO:SIC:s=32b\JJ)	!	!	!	!	!	!	!	!	!	!	!	!	!	!	!
.	.	.	32b\JJ	.	32dd\JJ)	.	.	.	.	.	.	.	.	.	.	.	.	.
!	!	!	!LO:SIC:s=8a'\J	!	!	!	!	!	!	!	!	!	!	!	!	!	!	!
8A\	.	.	8a\J	.	8cc#'\J	.	.	.	.	.	.	.	.	.	.	.	.	.
8A\	.	.	8r	.	8r	.	8A\	Ni-	8e\	Ni-	8a\	Ni-	8cc#\	Ni-	.	.	.	.
8A\J	.	.	8e/	.	16a\LL	.	8A\	-ſi	8e\	-si	8a\	-si	8cc#\	-si	.	.	.	.
.	.	.	.	.	16cc#\JJ	.	.	.	.	.	.	.	.	.	.	.	.	.
8E\L	.	.	(32g#/LLL	.	(32b\LLL	.	4r	.	4r	.	4r	.	4r	.	.	.	.	.
.	.	.	32a/	.	32cc#\	.	.	.	.	.	.	.	.	.	.	.	.	.
.	.	.	32b/	.	32dd\	.	.	.	.	.	.	.	.	.	.	.	.	.
.	.	.	32a/JJ)	.	32cc#\JJ)	.	.	.	.	.	.	.	.	.	.	.	.	.
8E\	.	.	8g#'/J	.	8b'\J	.	.	.	.	.	.	.	.	.	.	.	.	.
8E\	.	.	8r	.	8r	.	8E\	Do-	8e\	Do-	8g#\	Do-	8b\	Do-	.	.	.	.
8E\J	.	.	16g#/LL	.	16b\LL	.	16E\	-mi-	16e\	-mi-	16g#\	-mi-	16b\	-mi-	.	.	.	.
.	.	.	16b/JJ	.	16dd\JJ	.	16E\	-nus	16e\	-nus	16g#\	-nus	16b\	-nus	.	.	.	.
*Xtremolo	*	*	*	*	*	*	*	*	*	*	*	*	*	*	*	*	*	*
=2	=2	=2	=2	=2	=2	=2	=2	=2	=2	=2	=2	=2	=2	=2	=2	=2	=2	=2
!	!	!	!	!	!LO:SIC:s=(16dd\LL	!	!	!	!	!	!	!	!	!LO:SIC:v:l:s=ae-	!	!	!	!
8A\L	.	.	(16b\LL	.	16dd\LL	.	8A\	ae-	8e\	ae-	8a\	ae-	8cc#\	e-	1ryy	1ryy	1ryy	1ryy
!	!	!	!	!	!LO:SIC:s=16cc#\)	!	!	!	!	!	!	!	!	!	!	!	!	!
.	.	.	16a\)	.	16cc#\	.	.	.	.	.	.	.	.	.	.	.	.	.
!	!	!	!	!	!LO:SIC:s=(16cc#\	!	!	!	!	!	!	!	!	!	!	!	!	!
8A\	.	.	(16a\	.	16cc#\	.	16A\	-di-	16e\	-di-	16a\	-di-	16cc#\	-di-	.	.	.	.
!	!	!	!	!	!LO:SIC:s=16ee\JJ)	!	!	!	!	!	!	!	!	!	!	!	!	!
.	.	.	16cc#\JJ)	.	16ee\JJ	.	16A\	-fi-	16e\	-fi-	16a\	-fi-	16cc#\	-fi-	.	.	.	.
!	!	!	!	!	!	!	!	!	!	!	!LO:LB:g=original	!	!	!	!	!	!	!
!!LO:MO:ori
=-	=-	=-	=-	=-	=-	=-	=-	=-	=-	=-	=-	=-	=-	=-	=-	=-	=-	=-
!!LO:MO:end
!	!	!	!	!	!LO:SIC:s=(16ee\LL	!	!	!	!	!	!	!	!	!	!	!	!	!
8D\	6	.	(16cc#\LL	.	16ee\LL	.	8D\	-ca-	8f#\	-ca-	8b\	-ca-	8dd\	-ca-	.	.	.	.
!	!	!	!	!	!LO:SIC:s=16dd\)	!	!	!	!	!	!	!	!	!	!	!	!	!
.	.	.	16b\)	.	16dd\	.	.	.	.	.	.	.	.	.	.	.	.	.
8D#X\J	5	.	16b\	.	16dd\	.	16D#X\	-ve-	16f#\	-ve-	16a\	-ve-	16cc#\	-ve-	.	.	.	.
!	!	!	!	!	!	!	!	!	!	!	!	!	!	!LO:MO:mod=-rit	!	!	!	!
.	.	.	16a\JJ	.	16cc#\JJ	.	16D#\	-rit	16f#\	-rit	16a\	-rit	16cc#\	-rit[[nt]]	.	.	.	.
!	!	!	!LO:LB:g=original	!	!	!	!	!	!	!	!	!	!	!	!	!	!	!
!!LO:MO:ori
=-	=-	=-	=-	=-	=-	=-	=-	=-	=-	=-	=-	=-	=-	=-	=-	=-	=-	=-
!!LO:MO:end
!LO:TX:t=P:problem=mixed beam	!	!	!	!	!	!	!	!LO:MO:mod=do-	!	!LO:MO:mod=do-	!	!	!	!	!	!	!	!
8E\L	4	.	8a/L	.	8cc#\L	.	8E\	Do-	8e\	Do-	8a\	do-	8cc#\	do-	.	.	.	.
!	!	!	!	!	!	!	!	!LO:MO:mod=-mum,	!	!LO:MO:mod=-mum,	!	!LO:MO:mod=-mum,	!	!LO:MO:mod=-mum,	!	!	!	!
8EE/J	3	.	8g#/J	.	8b\J	.	8E\	-mum	8e\	-mum	8g#\	-mum	8b\	-mum	.	.	.	.
8r	.	.	16e/LL	.	16e/LL	.	8r	.	8r	.	8r	.	8r	.	.	.	.	.
.	.	.	16g#/	.	16g#/	.	.	.	.	.	.	.	.	.	.	.	.	.
8G#\	6	.	16b/	.	16b/	.	8G#\	in	8e\	in	8g#\	in	8b\	in	.	.	.	.
.	.	.	16dd/JJ	.	16dd/JJ	.	.	.	.	.	.	.	.	.	.	.	.	.
!	!	!	!	!	!	!	!LO:LB:g=original	!	!	!	!	!	!LO:LB:g=original	!	!	!	!	!
=3	=3	=3	=3	=3	=3	=3	=3	=3	=3	=3	=3	=3	=3	=3	=3	=3	=3	=3
!LO:TX:t=P:problem=mixed beam	!	!	!	!	!	!	!	!	!	!LO:MO:mod=va-	!	!	!	!LO:MO:mod=va-	!	!	!	!
8A\L	.	.	16dd\LL	.	16dd\LL	.	8A\	va-	8e\	Va-	8a\	va-	8cc#\	in	1ryy	1ryy	1ryy	1ryy
.	.	.	16cc#\	.	16cc#\	.	.	.	.	.	.	.	.	.	.	.	.	.
!	!	!	!	!	!	!	!	!	!	!	!	!	!	!LO:MO:mod=-num	!	!	!	!
8A\	.	.	16aa\	.	16aa\	.	8A\	-num	8e\	-num	8a\	-num	8cc#\	va-	.	.	.	.
.	.	.	16gg#\JJ	.	16gg#\JJ	.	.	.	.	.	.	.	.	.	.	.	.	.
!	!	!	!	!	!	!	!	!	!LO:PB:g=original	!	!	!	!	!	!	!	!	!
!!LO:MO:ori
=-	=-	=-	=-	=-	=-	=-	=-	=-	=-	=-	=-	=-	=-	=-	=-	=-	=-	=-
!!LO:MO:end
!	!	!	!	!	!	!	!	!	!	!	!	!	!	!LO:MO:mod=-la-	!	!	!	!
8C#/	6_	.	16aa\LL	.	16aa\LL	.	8C#\	la-	8e\	la-	8a\	la-	8ee\	-num	.	.	.	.
.	.	.	16gg#\	.	16gg#\	.	.	.	.	.	.	.	.	.	.	.	.	.
!	!	!	!	!	!	!	!	!	!	!	!	!	!	!LO:MO:mod=-bo-	!	!	!	!
8C#/J	.	.	16ff#\	.	16ff#\	.	8D\	-bo-	8e\	-bo-	8a\	-bo-	8ee\	la-	.	.	.	.
.	.	.	16ee\JJ	.	16ee\JJ	.	.	.	.	.	.	.	.	.	.	.	.	.
!	!	!	!	!	!LO:LB:g=original	!	!	!	!	!	!	!	!	!	!	!	!	!
!!LO:MO:ori
=-	=-	=-	=-	=-	=-	=-	=-	=-	=-	=-	=-	=-	=-	=-	=-	=-	=-	=-
!!LO:MO:end
!	!	!	!LO:SIC:s=8qee#X/	!	!LO:SIC:s=8qee#X/	!	!	!	!	!	!	!	!	!	!	!	!	!
.	.	.	8qqee#X/	.	8qqee#X/	.	.	.	.	.	.	.	.	.	.	.	.	.
*tremolo	*	*	*	*	*	*	*	*	*	*	*	*	*	*	*	*	*	*
!	!	!	!	!	!	!	!	!	!	!	!	!	!	!LO:MO:mod=-ra-	!	!	!	!
8D\L	X	.	8ff#\	.	8ff#\	.	8D\	-ra-	8d\	-[ra]-	8a\	-ra-	8ff#\	-bo-	.	.	.	.
!	!	!	!	!	!	!	!	!	!	!	!	!	!	!LO:MO:mod=-ve-	!	!	!	!
8D\	.	.	4ff#\	.	4ff#\	.	16D\	-ve-	16d\	-ve-	16a\	-ve-	16ff#\	-ra-	.	.	.	.
!	!	!	!	!	!	!	!	!	!	!	!	!	!	!LO:MO:mod=-runt	!	!	!	!
.	.	.	.	.	.	.	16D\	-runt	16d\	-runt	16a\	-runt	16ff#\	-ve-	.	.	.	.
!	!	!	!	!	!	!	!	!	!	!	!LO:MO:mod=!null:null	!	!	!	!	!	!	!
!	!	!	!	!	!	!	!	!	!	!LO:MO:mod=qui	!LO:N:vis=16	!	!	!LO:MO:mod=qui	!	!	!	!
8D\	.	.	.	.	.	.	8D\	qui	8d\	Qvi	8a\	qui	8ff#\	-runt	.	.	.	.
.	.	.	.	.	.	.	.	.	.	.	.	.	.	.	.	.	.	.
!	!	!	!	!	!	!	!	!	!	!	!	!LO:SIC:v:l:s=ae-	!	!LO:MO:mod=ae-	!	!	!	!
8D\J	.	.	16aa\LL	.	16aa\LL	.	8D\	ae-	8d\	ae-	8a\	et	8ff#\	qui	.	.	.	.
.	.	.	16ff#\JJ	.	16ff#\JJ	.	.	.	.	.	.	.	.	.	.	.	.	.
*Xtremolo	*	*	*	*	*	*	*	*	*	*	*	*	*	*	*	*	*	*
=4	=4	=4	=4	=4	=4	=4	=4	=4	=4	=4	=4	=4	=4	=4	=4	=4	=4	=4
*	*	*	*	*	*Xtuplet	*	*	*	*	*	*	*	*	*	*	*	*	*
!	!	!	!	!	!	!	!	!	!	!	!	!	!	!LO:MO:mod=-di-	!	!	!	!
8C#/L	6	.	16ee\LL	.	24ee\LL	.	8C#\	-di-	8e\	-di-	8a\	di-	8ee\	di-	1ryy	1ryy	1ryy	1ryy
.	.	.	.	.	24dd\	.	.	.	.	.	.	.	.	.	.	.	.	.
.	.	.	16cc#\JJ	.	.	.	.	.	.	.	.	.	.	.	.	.	.	.
.	.	.	.	.	24ee\JJ	.	.	.	.	.	.	.	.	.	.	.	.	.
*	*	*	*Xtuplet	*	*	*	*	*	*	*	*	*	*	*	*	*	*	*
8D/	6	.	24dd\LL	.	24ff#\LL	.	16D\	-fi-	16f#\	-fi-	16b\	-fi-	16dd\	-fi-	.	.	.	.
.	.	.	24cc#\	.	24ee\	.	.	.	.	.	.	.	.	.	.	.	.	.
.	.	.	.	.	.	.	16D\	-cant	16f#\	-cant	16b\	-cant	16dd\	-cant	.	.	.	.
.	.	.	24b\JJ	.	24dd\JJ	.	.	.	.	.	.	.	.	.	.	.	.	.
8E/	4	.	8a\L	.	8cc#\L	.	4E\	e-	4e\	e-	8a\L	e-	8cc#\L	e-	.	.	.	.
8EE/J	3	.	8g#\J	.	8b\J	.	.	.	.	.	8g#\J	.	8b\J	.	.	.	.	.
!	!	!	!	!	!	!	!	!LO:MO:mod=-am.	!	!LO:MO:mod=-am.	!	!LO:SIC:v:l:s=-am.	!	!LO:SIC:v:l:s=-am.	!	!	!	!
4AA/	.	.	16a\LL	.	16a/LL	.	4AA/	-am	4e\	-am	4a\	-um	4cc#\	-um	.	.	.	.
.	.	.	16cc#\	.	16cc#/	.	.	.	.	.	.	.	.	.	.	.	.	.
.	.	.	16a\	.	16a/	.	.	.	.	.	.	.	.	.	.	.	.	.
.	.	.	16e\JJ	.	16e/JJ	.	.	.	.	.	.	.	.	.	.	.	.	.
4r	.	.	16c#/LL	.	16c#/LL	.	4r	.	4r	.	4r	.	4r	.	.	.	.	.
.	.	.	16A/	.	16A/	.	.	.	.	.	.	.	.	.	.	.	.	.
.	.	.	16c#/	.	16c#/	.	.	.	.	.	.	.	.	.	.	.	.	.
.	.	.	16e/JJ	.	16e/JJ	.	.	.	.	.	.	.	.	.	.	.	.	.
=5	=5	=5	=5	=5	=5	=5	=5	=5	=5	=5	=5	=5	=5	=5	=5	=5	=5	=5
*tremolo	*	*	*	*	*	*	*	*	*	*	*	*	*	*	*	*	*	*
!	!	!	!LO:SIC:s=(32a/LLL	!	!	!	!	!	!	!	!	!	!	!	!	!	!	!
8A\L	.	.	32a/LLL	.	(32cc#\LLL	.	4r	.	4r	.	4r	.	4r	.	1ryy	1ryy	1ryy	1ryy
.	.	.	32b/	.	32dd\	.	.	.	.	.	.	.	.	.	.	.	.	.
.	.	.	32cc#/	.	32ee\	.	.	.	.	.	.	.	.	.	.	.	.	.
!	!	!	!LO:SIC:s=32b/JJ)	!	!	!	!	!	!	!	!	!	!	!	!	!	!	!
.	.	.	32b/JJ	.	32dd\JJ)	.	.	.	.	.	.	.	.	.	.	.	.	.
!	!	!	!LO:SIC:s=8a'/J	!	!	!	!	!	!	!	!	!	!	!	!	!	!	!
8A\	.	.	8a/J	.	8cc#'\J	.	.	.	.	.	.	.	.	.	.	.	.	.
!	!	!	!	!	!	!	!	!LO:MO:mod=Ni-	!	!LO:MO:mod=Ni-	!	!LO:MO:mod=Ni-	!	!	!	!	!	!
8A\	.	.	8r	.	8r	.	8A\	ni-	8e\	ni-	8a\	ni-	8cc#\	Ni-	.	.	.	.
8A\J	.	.	8e/	.	16a\LL	.	8A\	-ſi	8e\	-si	8a\	-ſi	8cc#\	-ſi	.	.	.	.
.	.	.	.	.	16cc#\JJ	.	.	.	.	.	.	.	.	.	.	.	.	.
!	!	!	!LO:LB:g=original	!	!	!	!	!	!	!	!	!	!	!	!	!	!	!
!!LO:MO:ori
=-	=-	=-	=-	=-	=-	=-	=-	=-	=-	=-	=-	=-	=-	=-	=-	=-	=-	=-
!!LO:MO:end
!	!	!	!LO:SIC:s=(32g#/LLL	!	!	!	!	!	!	!	!	!	!	!	!	!	!	!
8E\L	.	.	32g#/LLL	.	(32b\LLL	.	4r	.	4r	.	4r	.	4r	.	.	.	.	.
.	.	.	32a/	.	32cc#\	.	.	.	.	.	.	.	.	.	.	.	.	.
.	.	.	32b/	.	32dd\	.	.	.	.	.	.	.	.	.	.	.	.	.
!	!	!	!LO:SIC:s=32a/JJ)	!	!	!	!	!	!	!	!	!	!	!	!	!	!	!
.	.	.	32a/JJ	.	32cc#\JJ)	.	.	.	.	.	.	.	.	.	.	.	.	.
!	!	!	!LO:SIC:s=8g#'/J	!	!	!	!	!	!	!	!	!	!	!	!	!	!	!
8E\	.	.	8g#/J	.	8b'\J	.	.	.	.	.	.	.	.	.	.	.	.	.
8E\	.	.	8r	.	8r	.	8E\	Do-	8e\	Do-	8g#\	Do-	8b\	Do-	.	.	.	.
8E\J	.	.	16g#/LL	.	16b\LL	.	16E\	-mi-	16e\	-mi-	16g#\	-mi-	16b\	-mi-	.	.	.	.
.	.	.	16b/JJ	.	16dd\JJ	.	16E\	-nuſ	16e\	-nus	16g#\	-nus	16b\	-nus	.	.	.	.
!	!	!	!	!	!	!	!LO:LB:g=original	!	!	!	!LO:LB:g=original	!	!LO:LB:g=original	!	!	!	!	!
=6	=6	=6	=6	=6	=6	=6	=6	=6	=6	=6	=6	=6	=6	=6	=6	=6	=6	=6
!	!	!	!	!	!	!	!	!LO:MO:mod=cus-	!	!LO:MO:mod=cus-	!	!	!	!LO:MO:mod=cus-	!	!	!	!
8A\L	.	.	8e\L	.	16dd\LL	.	8A\	Cus-	8e\	Cus-	8a\	cus-	8cc#\	Cus-	1ryy	1ryy	1ryy	1ryy
.	.	.	.	.	16cc#\	.	.	.	.	.	.	.	.	.	.	.	.	.
8A\	.	.	8e\	.	16cc#\	.	8A\	-to-	8e\	-to-	8a\	-to-	8cc#\	-to-	.	.	.	.
.	.	.	.	.	16ee\JJ	.	.	.	.	.	.	.	.	.	.	.	.	.
8A\	.	.	8cc#\	.	16ee\LL	.	8A\	-di-	8e\	-di-	8a\	-di-	8cc#\	-di-	.	.	.	.
.	.	.	.	.	16cc#\	.	.	.	.	.	.	.	.	.	.	.	.	.
8A\J	.	.	8cc#\J	.	16aa\	.	16A\	-e-	16e\	-e-	16a\	-e-	16cc#\	-e-	.	.	.	.
.	.	.	.	.	16ee\JJ	.	16A\	-rit	16e\	-rit	16a\	-rit	16cc#\	-rit	.	.	.	.
*Xtremolo	*	*	*	*	*	*	*	*	*	*	*	*	*	*	*	*	*	*
!	!	!	!	!	!	!	!	!	!LO:LB:g=original	!	!	!	!	!	!	!	!	!
!!LO:MO:ori
=-	=-	=-	=-	=-	=-	=-	=-	=-	=-	=-	=-	=-	=-	=-	=-	=-	=-	=-
!!LO:MO:end
!LO:TX:t=P:problem=mixed beam	!	!	!	!	!	!	!	!	!	!	!	!	!	!	!	!	!	!
8E\L	.	.	16cc#\LL	.	16ee\LL	.	8E\	ci-	8e\	ci-	8b\	ci-	8dd\	ci-	.	.	.	.
.	.	.	16b\	.	16dd\	.	.	.	.	.	.	.	.	.	.	.	.	.
8E\	.	.	16g#\	.	16b\	.	8E\	-vi-	8e\	-vi-	8b\	-vi-	8dd\	-vi-	.	.	.	.
.	.	.	16b\JJ	.	16dd\JJ	.	.	.	.	.	.	.	.	.	.	.	.	.
8A\	.	.	8a\L	.	8cc#\L	.	4A\	-ta-	4e\	-ta-	4a\	-ta-	4cc#\	-ta-	.	.	.	.
8AA/J	.	.	8cc#\J	.	16ee\L	.	.	.	.	.	.	.	.	.	.	.	.	.
.	.	.	.	.	16cc#\JJ	.	.	.	.	.	.	.	.	.	.	.	.	.
!	!	!	!	!	!LO:LB:g=original	!	!	!	!	!	!	!	!	!	!	!	!	!
=7	=7	=7	=7	=7	=7	=7	=7	=7	=7	=7	=7	=7	=7	=7	=7	=7	=7	=7
*tremolo	*	*	*	*	*	*	*	*	*	*	*	*	*	*	*	*	*	*
!	!	!	!	!	!	!	!	!LO:MO:mod=-tem,	!	!LO:MO:mod=-tem,	!	!LO:MO:mod=-tem,	!	!LO:MO:mod=-tem,	!	!	!	!
8G#\L	6	.	16b/LL	.	16b/LL	.	4G#\	-tem	4e\	-tem	4g#\	-tem	4b\	-tem	1ryy	1ryy	1ryy	1ryy
.	.	.	16e/	.	16e/	.	.	.	.	.	.	.	.	.	.	.	.	.
8G#\	.	.	16b/	.	16b/	.	.	.	.	.	.	.	.	.	.	.	.	.
.	.	.	16cc#/JJ	.	16cc#/JJ	.	.	.	.	.	.	.	.	.	.	.	.	.
8G#\	.	.	16dd\LL	.	16dd\LL	.	8G#\	fru-	8e\	fru-	8e\	fru-	8b\	fru-	.	.	.	.
.	.	.	16b\	.	16b\	.	.	.	.	.	.	.	.	.	.	.	.	.
8G#\J	.	.	16ee\	.	16ee\	.	8G#\	-stra	8e\	-stra	8e\	-stra	8b\	-stra	.	.	.	.
.	.	.	16dd\JJ	.	16dd\JJ	.	.	.	.	.	.	.	.	.	.	.	.	.
8A\L	4 2	.	16cc#\LL	.	16cc#\LL	.	8A\	vi-	8c#\	vi-	8e\	vi-	8cc#\	vi-	.	.	.	.
.	.	.	16b\	.	16b\	.	.	.	.	.	.	.	.	.	.	.	.	.
8A\	.	.	16cc#\	.	16cc#\	.	16A\	-gi-	16c#\	-gi-	16e\	-gi-	16cc#\	-gi-	.	.	.	.
.	.	.	16ee\JJ	.	16ee\JJ	.	16A\	-lat	16c#\	-lat	16e\	-lat	16cc#\	-lat	.	.	.	.
8A\	.	.	8dd#X\L	.	8dd#X\L	.	8A\	qui	8B\	qui	8f#\	qui	8dd#X\	qui	.	.	.	.
!	!	!	!	!	!	!	!	!	!	!	!	!LO:MO:mod=cu-	!	!	!	!	!	!
8A\J	.	.	16cc#\L	.	16cc#\L	.	8A\	cu-	8B\	cu-	8f#\	et	8dd#\	cu-	.	.	.	.
.	.	.	16dd#\JJ	.	16dd#\JJ	.	.	.	.	.	.	.	.	.	.	.	.	.
*Xtremolo	*	*	*	*	*	*	*	*	*	*	*	*	*	*	*	*	*	*
=8	=8	=8	=8	=8	=8	=8	=8	=8	=8	=8	=8	=8	=8	=8	=8	=8	=8	=8
!	!	!	!LO:SIC:s=(16ee\LL	!	!	!	!	!	!	!	!	!LO:MO:mod=-sto-	!	!	!	!	!	!
8G#\L	6_	.	16ee\LL	.	(16ee\LL	.	4G#\	-sto-	4e\	-sto-	4b\	cu-	4ee\	-sto-	1ryy	1ryy	1ryy	1ryy
!	!	!	!LO:SIC:s=16b\)	!	!	!	!	!	!	!	!	!	!	!	!	!	!	!
.	.	.	16b\	.	16b\)	.	.	.	.	.	.	.	.	.	.	.	.	.
!	!	!	!LO:SIC:s=16b'\	!	!	!	!	!	!	!	!	!	!	!	!	!	!	!
8G#\	.	.	16b\	.	16b'\	.	.	.	.	.	.	.	.	.	.	.	.	.
!	!	!	!LO:SIC:s=16b'\JJ	!	!	!	!	!	!	!	!	!	!	!	!	!	!	!
.	.	.	16b\JJ	.	16b'\JJ	.	.	.	.	.	.	.	.	.	.	.	.	.
!	!	!	!	!	!	!	!	!	!	!	!	!LO:MO:mod=-dit	!LO:SIC:s=4dd\	!	!	!	!	!
8G#\	5	.	16b\LL	.	16b\LL	.	4G#\	-dit	4e\	-dit	4b\	-sto-	4ddn\	-dit	.	.	.	.
.	.	.	16cc#\	.	16cc#\	.	.	.	.	.	.	.	.	.	.	.	.	.
8G#\J	n	.	16cc#\	.	16cc#\	.	.	.	.	.	.	.	.	.	.	.	.	.
!	!	!	!LO:SIC:s=16dd\JJ	!	!LO:SIC:s=16dd\JJ	!	!	!	!	!	!	!	!	!	!	!	!	!
.	.	.	16ddn\JJ	.	16ddn\JJ	.	.	.	.	.	.	.	.	.	.	.	.	.
!LO:PB:g=original	!	!	!LO:LB:g=original	!	!	!	!	!	!	!	!	!	!	!	!	!	!	!
!!LO:MO:ori
=-	=-	=-	=-	=-	=-	=-	=-	=-	=-	=-	=-	=-	=-	=-	=-	=-	=-	=-
!!LO:MO:end
!LO:TX:t=P:problem=mixed beam	!	!	!	!	!	!	!LO:SIC:s=(4A\	!	!LO:SIC:s=(4c#\	!	!LO:SIC:s=(4a\	!LO:MO:mod=e-	!LO:SIC:s=(8cc#\L	!	!	!	!	!
8A\L	3	.	8cc#\L	.	8cc#\L	.	4A\	e-	4c#\	e-	4a\	-dit	8cc#\L	e-	.	.	.	.
8A\	6	.	16cc#\L	.	16aa\L	.	.	.	.	.	.	.	8ff#\J	.	.	.	.	.
.	.	.	16a\JJ	.	16ff#\JJ	.	.	.	.	.	.	.	.	.	.	.	.	.
!	!	!	!	!	!	!	!LO:TX:t=P:problem=mixed beam	!	!LO:SIC:s=4B\)	!	!	!LO:MO:mod=.	!	!	!	!	!	!
8B\	4	.	8g#/L	.	8ee\L	.	8B\L	.	4B\	.	8g#\L	e-	8ee\L	.	.	.	.	.
!	!	!	!	!	!	!	!LO:SIC:s=8BB/J)	!	!	!	!LO:SIC:s=8f#\J)	!	!LO:SIC:s=8dd#X\J)	!	!	!	!	!
8BB/J	#	.	8f#/J	.	8dd#X\J	.	8BB/J	.	.	.	8f#\J	.	8dd#X\J	.	.	.	.	.
!	!	!	!	!	!	!	!	!	!	!	!	!	!LO:LB:g=original	!	!	!	!	!
=9	=9	=9	=9	=9	=9	=9	=9	=9	=9	=9	=9	=9	=9	=9	=9	=9	=9	=9
!LO:TX:t=P:problem=mixed beam	!	!	!	!	!	!	!	!	!	!	!	!	!	!	!	!	!	!
!LO:TX:a:i:t=Solo	!	!	!	!	!	!	!	!LO:MO:mod=-am.	!	!LO:MO:mod=-am.	!	!LO:MO:mod=-am.	!	!LO:MO:mod=-am.	!	!	!	!
8E\L	.	.	16g#\LL	.	16ee\LL	.	4E\	-am	4B\	-am	4g#\	-am	4ee\	-am	1ryy	1ryy	1ryy	1ryy
.	.	.	16b\	.	16b\	.	.	.	.	.	.	.	.	.	.	.	.	.
8E\	.	.	16ee\	.	16ee\	.	.	.	.	.	.	.	.	.	.	.	.	.
.	.	.	16gg#\JJ	.	16gg#\JJ	.	.	.	.	.	.	.	.	.	.	.	.	.
8G#\	6_	.	16bb\LL	.	16bb\LL	.	4r	.	4r	.	4r	.	4r	.	.	.	.	.
.	.	.	16gg#\	.	16gg#\	.	.	.	.	.	.	.	.	.	.	.	.	.
8G#\J	.	.	16ee\	.	16ee\	.	.	.	.	.	.	.	.	.	.	.	.	.
.	.	.	16b\JJ	.	16b\JJ	.	.	.	.	.	.	.	.	.	.	.	.	.
!LO:TX:t=P:problem=mixed beam	!	!	!	!	!	!	!	!	!	!	!	!	!	!	!	!	!	!
8A\L	X	.	8cc#\L	.	8cc#\L	.	2r	.	2r	.	2r	.	2r	.	.	.	.	.
8A\	6	.	16cc#\L	.	16aa\L	.	.	.	.	.	.	.	.	.	.	.	.	.
.	.	.	16a\JJ	.	16ff#\JJ	.	.	.	.	.	.	.	.	.	.	.	.	.
8B\	4	.	8g#\L	.	8ee\L	.	.	.	.	.	.	.	.	.	.	.	.	.
8BB/J	#	.	8f#\J	.	8dd#X\J	.	.	.	.	.	.	.	.	.	.	.	.	.
!	!	!	!	!	!	!	!LO:LB:g=original	!	!	!	!	!	!	!	!	!	!	!
=10	=10	=10	=10	=10	=10	=10	=10	=10	=10	=10	=10	=10	=10	=10	=10	=10	=10	=10
*tremolo	*	*	*	*	*	*	*	*	*	*	*	*	*	*	*	*	*	*
!	!	!	!	!LO:MO:mod=!null:null	!	!LO:MO:mod=!null:null	!	!	!	!	!	!	!	!	!	!	!	!
!	!	!	!	!LO:DY:b:rj	!	!LO:DY:b:rj	!LO:TX:a:t=5:mod=	!	!LO:TX:a:t=5:mod=	!	!	!	!LO:TX:a:t=2:mod=	!	!	!	!	!
8E\L	.	.	8g#\L	p	4ee\	p	00r	.	00r	.	8r	.	0r	.	1ryy	1ryy	1ryy	1ryy
!	!	!	!	!	!	!	!	!	!	!	!	!LO:MO:mod=Va-	!	!	!	!	!	!
8E\	.	.	8b\	.	.	.	.	.	.	.	8g#\	va-	.	.	.	.	.	.
8E\	.	.	8b\	.	16ee\LL	.	.	.	.	.	16g#\LL	-num	.	.	.	.	.	.
.	.	.	.	.	16dd#X\	.	.	.	.	.	16f#\JJ	.	.	.	.	.	.	.
8E\J	.	.	8b\J	.	16ee\	.	.	.	.	.	16g#\LL	est	.	.	.	.	.	.
.	.	.	.	.	16ff#\JJ	.	.	.	.	.	16a\JJ	.	.	.	.	.	.	.
*Xtremolo	*	*	*tremolo	*	*	*	*	*	*	*	*	*	*	*	*	*	*	*
!	!	!	!LO:TX:a:t=....:mod=	!	!	!	!	!	!	!	!	!	!	!	!	!	!	!
8D#X\L	6	.	8b\L	.	4ff#\	.	.	.	.	.	8.b\L	vo-	.	.	.	.	.	.
8D#\	5	.	8b\	.	.	.	.	.	.	.	.	.	.	.	.	.	.	.
.	.	.	.	.	.	.	.	.	.	.	16a\Jk	.	.	.	.	.	.	.
!	!	!	!	!	!	!	!	!	!	!	!LO:LB:g=original	!	!	!	!	!	!	!
!!LO:MO:ori
=-	=-	=-	=-	=-	=-	=-	=-	=-	=-	=-	=-	=-	=-	=-	=-	=-	=-	=-
!!LO:MO:end
8E\	.	.	8b\	.	8ee\L	.	.	.	.	.	8g#\	-bis	.	.	.	.	.	.
8E\J	.	.	8b\J	.	8bb\J	.	.	.	.	.	16b\	an-	.	.	.	.	.	.
.	.	.	.	.	.	.	.	.	.	.	16b\	-te	.	.	.	.	.	.
=11	=11	=11	=11	=11	=11	=11	=11	=11	=11	=11	=11	=11	=11	=11	=11	=11	=11	=11
*	*	*	*	*	*2\right	*	*	*	*	*	*	*	*	*	*	*	*	*
*	*	*	*	*	*tremolo	*	*	*	*	*	*	*	*	*	*	*	*	*
8BB/L	7	.	8b\L	.	8ff#\L	.	.	.	.	.	8.a\	lu-	.	.	1ryy	1ryy	1ryy	1ryy
8BB/	.	.	8b\	.	8ff#\	.	.	.	.	.	.	.	.	.	.	.	.	.
.	.	.	.	.	.	.	.	.	.	.	16f#\	-cem	.	.	.	.	.	.
!LO:SIC:v:s=8D#/	!	!	!	!	!	!	!	!	!	!	!	!	!	!	!	!	!	!
8D/	6	.	8b\	.	8ff#\	.	.	.	.	.	16b\LL	sur-	.	.	.	.	.	.
.	.	.	.	.	.	.	.	.	.	.	16a\JJ	.	.	.	.	.	.	.
!LO:SIC:v:s=8D#/J	!	!	!	!	!	!	!	!	!	!	!	!	!	!	!	!	!	!
8D/J	.	.	8b\J	.	8ff#\J	.	.	.	.	.	16g#\LL	-ge-	.	.	.	.	.	.
.	.	.	.	.	.	.	.	.	.	.	16f#\JJ	.	.	.	.	.	.	.
*	*	*	*Xtremolo	*	*Xtremolo	*	*	*	*	*	*	*	*	*	*	*	*	*
!	!	!	!	!	!	!	!	!	!	!	!	!LO:MO:mod=-re&colon;	!	!	!	!	!	!
4E\	.	.	4g#/	.	4ee\	.	.	.	.	.	8e\	-re	.	.	.	.	.	.
.	.	.	.	.	.	.	.	.	.	.	8e\L	sur-	.	.	.	.	.	.
!	!	!	!	!	!LO:MO:mod=!null:null	!	!	!	!	!	!	!	!	!	!	!	!	!
!	!	!	!	!	!LO:TX:a:t=Wi	!	!	!	!	!	!	!	!	!	!	!	!	!
8r	.	.	4r	.	4r	.	.	.	.	.	8g#\J	.	.	.	.	.	.	.
8D\	6	.	.	.	.	.	.	.	.	.	8b\	-gi-	.	.	.	.	.	.
!	!	!	!	!	!LO:PB:g=original	!	!	!	!	!	!	!	!	!	!	!	!	!
=12	=12	=12	=12	=12	=12	=12	=12	=12	=12	=12	=12	=12	=12	=12	=12	=12	=12	=12
!	!	!	!	!	!LO:MO:mod=!null:null	!	!	!	!	!	!	!	!	!	!	!	!	!
!	!	!	!	!	!LO:TX:a:t=De	!	!	!	!	!	!	!	!LO:TX:a:i:t=Solo	!	!	!	!	!
8E\L	.	.	8r	.	8r	.	.	.	.	.	8.ee\	-te	8r	.	1ryy	1ryy	1ryy	1ryy
8E\	.	.	8b\	.	8gg#\	.	.	.	.	.	.	.	8gg#\	post-	.	.	.	.
!	!	!	!	!	!	!	!	!	!	!	!LO:MO:mod=!null:null	!	!	!	!	!	!	!
!	!	!	!	!	!	!	!	!	!	!	!LO:N:vis=8	!	!	!	!	!	!	!
.	.	.	.	.	.	.	.	.	.	.	16b\	post-	.	.	.	.	.	.
8A\	6	.	16b\LL	.	16gg#\LL	.	.	.	.	.	16b\LL	-quam	16gg#\LL	-quam	.	.	.	.
.	.	.	16a\	.	16ff#\	.	.	.	.	.	16a\JJ	.	16ff#\JJ	.	.	.	.	.
8A#X\J	5	.	16a\	.	16ff#\	.	.	.	.	.	16a\LL	ſe-	16ff#\LL	ſe-	.	.	.	.
.	.	.	16g#\JJ	.	16ee\JJ	.	.	.	.	.	16g#\JJ	.	16ee\JJ	.	.	.	.	.
!LO:TX:t=P:problem=mixed beam	!	!	!	!	!	!	!	!	!	!	!	!	!	!	!	!	!	!
8B\L	4	.	4g#/	.	4ee\	.	.	.	.	.	8.g#\	-de-	8.ee\	-de-	.	.	.	.
8BB/	#_	.	.	.	.	.	.	.	.	.	.	.	.	.	.	.	.	.
.	.	.	.	.	.	.	.	.	.	.	16g#\	-ri-	16ee\	-ri-	.	.	.	.
!	!	!	!	!	!	!	!	!	!	!	!	!LO:MO:mod=-tis,	!	!LO:MO:mod=-tis,	!	!	!	!
8B\	.	.	8f#/L	.	8dd#X\L	.	.	.	.	.	8f#\	-tis	8dd#X\	-tis	.	.	.	.
8B\J	.	.	8f#/J	.	8dd#\J	.	.	.	.	.	8f#\	qui	8dd#\	qui	.	.	.	.
!	!	!	!LO:LB:g=original	!	!	!	!	!	!	!	!	!	!	!	!	!	!	!
=13	=13	=13	=13	=13	=13	=13	=13	=13	=13	=13	=13	=13	=13	=13	=13	=13	=13	=13
!	!	!	!	!	!	!	!	!	!	!	!	!	!LO:SIC:s=(8ee\L	!	!	!	!	!
8A#X\L	7: 5:	.	8g#/L	.	8ee\L	.	.	.	.	.	(8g#\L	man-	8ee\L	man-	1ryy	1ryy	1ryy	1ryy
!	!	!	!	!	!LO:SIC:v:s=16dd#\L	!	!	!	!	!	!	!	!LO:SIC:v:s=16dd#\L	!	!	!	!	!
8A#\	.	.	16f#/L	.	16dd\L	.	.	.	.	.	16f#\L	.	16dd\L	.	.	.	.	.
!	!	!	!	!	!	!	!	!	!	!	!	!	!LO:SIC:s=16ee\JJ	!	!	!	!	!
.	.	.	16g#/JJ	.	16ee\JJ	.	.	.	.	.	16g#\JJ	.	(16ee\JJ	.	.	.	.	.
8A#\	8 6	.	8a/L	.	8ff#\L	.	.	.	.	.	8a\)	.	8ff#\)	.	.	.	.	.
8A#\J	7 5	.	8g#/J	.	8ee\J	.	.	.	.	.	8g#\	-du-	8ee\	-du-	.	.	.	.
8B\L	6_ 4_	.	8g#/L	.	8ee\L	.	.	.	.	.	8.g#\L	-ca-	8.ee\L	-ca-	.	.	.	.
!	!	!	!	!	!LO:SIC:v:s=16dd#\L	!	!	!	!	!	!	!	!	!	!	!	!	!
8B\	.	.	16f#/L	.	16dd\L	.	.	.	.	.	.	.	.	.	.	.	.	.
!	!	!	!	!	!	!	!	!	!	!	!LO:MO:mod=!null:null	!	!	!	!	!	!	!
!	!	!	!	!	!	!	!	!	!	!	!LO:N:vis=16	!	!LO:SIC:s=32dd#\LL	!	!	!	!	!
.	.	.	16g#/JJ	.	16ee\JJ	.	.	.	.	.	32f#\LL	.	32dd#X\LL	.	.	.	.	.
!	!	!	!	!	!	!	!	!	!	!	!LO:MO:mod=!null:null	!	!	!	!	!	!	!
!	!	!	!	!	!	!	!	!	!	!	!LO:N:vis=16	!	!	!	!	!	!	!
.	.	.	.	.	.	.	.	.	.	.	32g#\JJJ	.	32ee\JJJ	.	.	.	.	.
!	!	!	!	!	!LO:SIC:v:s=8dd#\L	!	!	!	!	!	!	!	!	!	!	!	!	!
8B\	5_ #_	.	8f#/L	.	8dd\L	.	.	.	.	.	8f#\	-tis	8dd#\	-tis	.	.	.	.
!	!	!	!	!	!LO:SIC:v:s=8dd#\J	!	!	!	!	!	!	!	!	!	!	!	!	!
8An\J	.	.	8f#/J	.	8dd\J	.	.	.	.	.	8f#\	pa-	8dd#\	pa-	.	.	.	.
=14	=14	=14	=14	=14	=14	=14	=14	=14	=14	=14	=14	=14	=14	=14	=14	=14	=14	=14
!LO:TX:t=P:problem=mixed beam	!	!	!	!	!	!	!	!	!	!	!	!	!	!	!	!	!	!
8G#\L	6	.	8g#/L	.	8ee\L	.	1r	.	1r	.	8g#\	-nem	8ee\	-nem	1ryy	1ryy	1ryy	1ryy
8A\	6	.	8a/	.	8ff#\	.	.	.	.	.	8a\	do-	8ff#\	do-	.	.	.	.
!	!	!	!	!	!	!	!	!	!	!	!LO:LB:g=original	!	!LO:LB:g=original	!	!	!	!	!
!!LO:MO:ori
=-	=-	=-	=-	=-	=-	=-	=-	=-	=-	=-	=-	=-	=-	=-	=-	=-	=-	=-
!!LO:MO:end
8B\	4	.	8g#/	.	8ee\	.	.	.	.	.	8g#\L	-lo-	8ee\L	-lo-	.	.	.	.
!	!	!	!	!	!LO:SIC:v:s=8dd#\J	!	!	!	!	!	!	!	!	!	!	!	!	!
8BB/J	#	.	8f#/J	.	8dd\J	.	.	.	.	.	8f#\J	.	8dd#X\J	.	.	.	.	.
!LO:LB:g=original	!	!	!	!	!	!	!	!	!	!	!	!	!	!	!	!	!	!
!!LO:MO:ori
=-	=-	=-	=-	=-	=-	=-	=-	=-	=-	=-	=-	=-	=-	=-	=-	=-	=-	=-
!!LO:MO:end
!	!	!	!	!LO:MO:mod=!null:null	!	!LO:MO:mod=!null:null	!	!	!	!	!	!	!	!	!	!	!	!
!	!	!	!	!LO:DY:b:rj	!LO:TX:t=P:problem=mixed beam	!LO:DY:b:rj	!	!	!	!	!	!LO:MO:mod=ris.	!	!LO:MO:mod=ris.	!	!	!	!
4E\	.	.	16g#:/LL	f	16ee\LL	f	.	.	.	.	4g#\	-ris	4ee\	-ris	.	.	.	.
.	.	.	16e/	.	16e/	.	.	.	.	.	.	.	.	.	.	.	.	.
.	.	.	16g#/	.	16g#/	.	.	.	.	.	.	.	.	.	.	.	.	.
.	.	.	16b/JJ	.	16b/JJ	.	.	.	.	.	.	.	.	.	.	.	.	.
8r	.	.	16ee\LL	.	16ee\LL	.	.	.	.	.	4r	.	4r	.	.	.	.	.
.	.	.	16gg#\	.	16gg#\	.	.	.	.	.	.	.	.	.	.	.	.	.
!	!	!LO:DY:t= :mod=%s	!	!	!	!	!	!	!	!	!	!	!	!	!	!	!	!
8D#X\	6	f	16bb\	.	16bb\	.	.	.	.	.	.	.	.	.	.	.	.	.
.	5	.	16aa\JJ	.	16aa\JJ	.	.	.	.	.	.	.	.	.	.	.	.	.
=15	=15	=15	=15	=15	=15	=15	=15	=15	=15	=15	=15	=15	=15	=15	=15	=15	=15	=15
*tremolo	*	*	*	*	*	*	*	*	*	*	*	*	*	*	*	*	*	*
!	!	!LO:DY:b:t=for:mod=	!	!	!	!	!	!	!	!LO:MO:mod=Cum	!	!LO:MO:mod=Cum	!	!	!	!	!	!
!	!	!LO:MO:mod=.	!	!	!	!	!	!	!	!	!	!	!	!	!	!	!	!
8E\L	.	f	8gg#\L	.	16gg#\LL	.	8E\	Cum	8e\	cum	8g#\	cum	8b\	Cum	1ryy	1ryy	1ryy	1ryy
.	.	.	.	.	16ee\	.	.	.	.	.	.	.	.	.	.	.	.	.
8E\	.	.	8b\	.	16b\	.	8E\	de-	8e\	de-	8g#\	de-	8b\	de-	.	.	.	.
.	.	.	.	.	16ee\JJ	.	.	.	.	.	.	.	.	.	.	.	.	.
!	!	!	!	!	!	!	!	!	!	!	!	!	!	!LO:SIC:v:l:s=-de-	!	!	!	!
8E\	.	.	8b\	.	16gg#\LL	.	8E\	-de-	8e\	-de-	8g#\	-de-	8b\	-dent-	.	.	.	.
.	.	.	.	.	16ee\	.	.	.	.	.	.	.	.	.	.	.	.	.
8E\J	.	.	8b\J	.	16bb\	.	8E\	-rit	8e\	-rit	8g#\	-rit	8b\	-rit	.	.	.	.
.	.	.	.	.	16gg#\JJ	.	.	.	.	.	.	.	.	.	.	.	.	.
!	!	!	!	!	!	!	!	!	!LO:LB:g=original	!	!	!	!	!	!	!	!	!
!!LO:MO:ori
=-	=-	=-	=-	=-	=-	=-	=-	=-	=-	=-	=-	=-	=-	=-	=-	=-	=-	=-
!!LO:MO:end
*	*	*	*tremolo	*	*	*	*	*	*	*	*	*	*	*	*	*	*	*
!	!	!	!	!	!	!	!	!	!	!	!	!	!	!LO:SIC:v:l:s=di-	!	!	!	!
8E#X\L	.	.	8cc#\L	.	16ee#X\LL	.	4E#X\	di-	4c#\	di-	4g#\	di-	4cc#\	De-	.	.	.	.
.	.	.	.	.	16cc#\	.	.	.	.	.	.	.	.	.	.	.	.	.
8E#X\	.	.	8cc#\	.	16ee#\	.	.	.	.	.	.	.	.	.	.	.	.	.
.	.	.	.	.	16ff#\JJ	.	.	.	.	.	.	.	.	.	.	.	.	.
!	!	!	!	!	!	!	!	!	!	!	!	!	!	!LO:SIC:v:l:s=-le-	!	!	!	!
8E#X\	.	.	8cc#\	.	16gg#\LL	.	8E#\	-le-	8c#\	-le-	8g#\	-le-	8cc#\	-li-	.	.	.	.
.	.	.	.	.	16ee#\	.	.	.	.	.	.	.	.	.	.	.	.	.
8E#X\J	.	.	8cc#\J	.	16bb\	.	8E#\	-ctis	8c#\	-ctis	8g#\	-ctis	8cc#\	-ctis	.	.	.	.
.	.	.	.	.	16gg#\JJ	.	.	.	.	.	.	.	.	.	.	.	.	.
*Xtremolo	*	*	*Xtremolo	*	*	*	*	*	*	*	*	*	*	*	*	*	*	*
!	!	!	!	!	!LO:LB:g=original	!	!	!	!	!	!	!	!	!	!	!	!	!
=16	=16	=16	=16	=16	=16	=16	=16	=16	=16	=16	=16	=16	=16	=16	=16	=16	=16	=16
8F#\L	.	.	8a\L	.	16ff#\LL	.	4F#\	ſu-	4c#\	ſu-	4a\	ſu-	4cc#\	ſu-	1ryy	1ryy	1ryy	1ryy
.	.	.	.	.	16cc#\	.	.	.	.	.	.	.	.	.	.	.	.	.
8F#\	.	.	16a\L	.	16ff#\	.	.	.	.	.	.	.	.	.	.	.	.	.
.	.	.	16cc#\JJ	.	16aa\JJ	.	.	.	.	.	.	.	.	.	.	.	.	.
8B\	6	.	16cc#\LL	.	16aa\LL	.	8B\L	-is	4d\	-is	8g#\L	-is	8b\L	-is	.	.	.	.
.	.	.	16b\	.	16gg#\	.	.	.	.	.	.	.	.	.	.	.	.	.
8B#X\J	5	.	16b\	.	16gg#\	.	8B#X\J	.	.	.	8f#\J	.	8a\J	.	.	.	.	.
.	.	.	16a\JJ	.	16ff#\JJ	.	.	.	.	.	.	.	.	.	.	.	.	.
!LO:TX:t=P:problem=mixed beam	!	!	!	!	!	!	!	!	!	!LO:SIC:v:l:s=som-	!	!	!	!	!	!	!	!
8c#\L	4	.	8a/L	.	8ff#\L	.	4c#\	ſom-	4c#\	do-	8f#\L	ſom-	8a\L	ſom-	.	.	.	.
8c#\	.	.	16g#/L	.	16ee#X\L	.	.	.	.	.	16e#X\L	.	16g#\L	.	.	.	.	.
.	.	.	16a/JJ	.	16ff#\JJ	.	.	.	.	.	16f#\JJ	.	16a\JJ	.	.	.	.	.
!	!	!	!	!	!	!	!	!LO:MO:mod=-num&colon;	!	!LO:MO:mod=-num&colon;	!	!LO:MO:mod=-num&colon;	!	!LO:MO:mod=-num&colon;	!	!	!	!
8C#/	#_	.	8g#/L	.	16ee#\LL	.	8C#/	-num	8c#\	-mum	8e#\	-num	8g#\	-num	.	.	.	.
.	.	.	.	.	16cc#\	.	.	.	.	.	.	.	.	.	.	.	.	.
!	!	!	!	!	!	!	!	!LO:MO:mod=ec-	!	!LO:MO:mod=ec-	!	!	!	!LO:MO:mod=ec-	!	!	!	!
8C#/J	.	.	8g#/J	.	16gg#\	.	16C#/	Ec-	16c#\	Ec-	16e#\	ec-	16g#\	Ec-	.	.	.	.
.	.	.	.	.	16ee#\JJ	.	16C#/	-ce	16c#\	-ce	16e#\	-ce	16g#\	-ce	.	.	.	.
!	!	!	!LO:LB:g=original	!	!	!	!	!	!	!	!	!	!LO:LB:g=original	!	!	!	!	!
=17	=17	=17	=17	=17	=17	=17	=17	=17	=17	=17	=17	=17	=17	=17	=17	=17	=17	=17
!	!	!	!	!	!	!	!	!LO:SIC:v:l:s=hae-	!	!LO:SIC:v:l:s=hae-	!	!LO:SIC:v:l:s=hae-	!	!LO:SIC:v:l:s=hae-	!	!	!	!
8F#\L	X	.	8a/L	.	16ff#\LL	.	8F#\	he-	8c#\	he-	8f#\	he-	8a\	he-	1ryy	1ryy	1ryy	1ryy
.	.	.	.	.	16cc#\	.	.	.	.	.	.	.	.	.	.	.	.	.
8F#\	.	.	8a/	.	16aa\	.	8F#\	-re-	8c#\	-re-	8f#\	-re-	8a\	-re-	.	.	.	.
.	.	.	.	.	16cc#\JJ	.	.	.	.	.	.	.	.	.	.	.	.	.
8E#X\	6	.	8g#/	.	16cc#\LL	.	8E#X\	-di-	8e#X\	-di-	8g#\	-di-	8cc#\	-di-	.	.	.	.
.	.	.	.	.	16b\	.	.	.	.	.	.	.	.	.	.	.	.	.
8C#\J	.	.	8g#/J	.	16g#\	.	8C#\	-tas	8e#\	-tas	8g#\	-tas	8cc#\	-tas	.	.	.	.
.	.	.	.	.	16b\JJ	.	.	.	.	.	.	.	.	.	.	.	.	.
!	!	!	!	!	!	!	!LO:LB:g=original	!	!	!	!	!	!	!	!	!	!	!
=-	=-	=-	=-	=-	=-	=-	=-	=-	=-	=-	=-	=-	=-	=-	=-	=-	=-	=-
*	*	*	*tremolo	*	*	*	*	*	*	*	*	*	*	*	*	*	*	*
!	!	!	!	!	!	!	!	!	!	!	!	!	!LO:MO:mod=!null:null	!	!	!	!	!
!	!	!	!	!	!	!	!	!	!	!	!	!	!LO:N:vis=16	!	!	!	!	!
8F#\L	.	.	8a/L	.	16b\LL	.	8F#\	Do-	8f#\	Do-	8a\	Do-	8cc#\	Do-	.	.	.	.
.	.	.	.	.	16a\	.	.	.	.	.	.	.	.	.	.	.	.	.
8F#\	.	.	8a/	.	16a\	.	16F#\	-mi-	16f#\	-mi-	16a\	-mi-	16cc#\	-mi-	.	.	.	.
!	!	!	!	!	!	!	!	!	!	!	!	!	!	!	!LO:MO:mod=!null:null	!	!	!
!	!	!	!	!	!	!	!	!LO:MO:mod=-ni,	!	!LO:MO:mod=-ni,	!	!LO:MO:mod=-ni,	!LO:N:vis=8	!LO:MO:mod=-ni,	!	!	!	!
.	.	.	.	.	16cc#\JJ	.	16F#\	-ni	16f#\	-ni	16a\	-ni	16cc#\	-ni	.	.	.	.
8A\	6	.	8a/	.	16ff#\LL	.	8A\	fi-	8f#\	fi-	8a\	fi-	8cc#\	fi-	.	.	.	.
.	.	.	.	.	16cc#\	.	.	.	.	.	.	.	.	.	.	.	.	.
8F#\J	.	.	8a/J	.	16aa\	.	16F#\	-li-	16f#\	-li-	16a\	-li-	16cc#\	-li-	.	.	.	.
!	!	!	!	!	!	!	!	!LO:MO:mod=-i&colon;	!	!LO:MO:mod=-i&colon;	!	!LO:MO:mod=-i&colon;	!	!LO:MO:mod=-i&colon;	!	!	!	!
.	.	.	.	.	16ff#\JJ	.	16F#\	-i	16f#\	-i	16a\	-i	16cc#\	-i	.	.	.	.
!	!	!	!	!	!	!	!	!	!	!	!LO:LB:g=original	!	!	!	!	!	!	!
!	!	!	!	!	!	!	!	!	!	!	!LO:MO:mod==18	!LO:MO:mod==18	!	!	!	!	!	!
=18	=18	=18	=18	=18	=18	=18	=18	=18	=18	=18	=18-	=18-	=18	=18	=18	=18	=18	=18
8c#\L	#_	.	8g#/L	.	16ff#\LL	.	4c#\	mer-	4e#X\	mer-	4.g#\	mer-	4.cc#\	mer-	1ryy	1ryy	1ryy	1ryy
.	.	.	.	.	16ee#X\J	.	.	.	.	.	.	.	.	.	.	.	.	.
8c#\	.	.	8g#/	.	8ee#\J	.	.	.	.	.	.	.	.	.	.	.	.	.
!	!	!	!	!	!	!	!	!LO:MO:mod=-ces,	!	!LO:MO:mod=-ces,	!	!	!	!	!	!	!	!
8B\	4_ 2_	.	8g#/	.	16ee#\LL	.	4B\	-ces	4c#\	-ces	.	.	.	.	.	.	.	.
.	.	.	.	.	16cc#\	.	.	.	.	.	.	.	.	.	.	.	.	.
!	!	!	!	!	!	!	!	!	!	!	!	!LO:MO:mod=-ces,	!	!LO:MO:mod=-ces,	!	!	!	!
8B\J	.	.	8g#/J	.	16gg#\	.	.	.	.	.	8g#\	-ces	8ee#X\	-ces	.	.	.	.
.	.	.	.	.	16ee#\JJ	.	.	.	.	.	.	.	.	.	.	.	.	.
*	*	*	*Xtremolo	*	*	*	*	*	*	*	*	*	*	*	*	*	*	*
!	!	!	!	!	!	!	!	!	!LO:LB:g=original	!	!	!	!	!	!	!	!	!
!!LO:MO:ori
=-	=-	=-	=-	=-	=-	=-	=-	=-	=-	=-	=-	=-	=-	=-	=-	=-	=-	=-
!!LO:MO:end
8A\L	6	.	4a/	.	8ff#\	.	8A\	fruc-	8c#\	fruc-	8a\	fruc-	8ff#\	fruc-	.	.	.	.
!	!	!	!	!	!	!	!	!LO:SIC:v:l:s=-tus	!	!	!	!	!	!	!	!	!	!
8d\	.	.	.	.	4ff#\	.	8d\	-tum	8d\	-tus	8a\	-tus	8ff#\	-tus	.	.	.	.
8B\	6 5	.	4g#/	.	.	.	8B\L	ven-	8d\L	ven-	4g#\	ven-	8ff#\L	ven-	.	.	.	.
!	!	!	!	!	!	!	!	!	!	!	!	!	!LO:SIC:s=8ee#\J	!	!	!	!	!
8c#\J	#	.	.	.	8ee#\	.	8c#\J	.	8c#\J	.	.	.	8ee#X\J	.	.	.	.	.
=19	=19	=19	=19	=19	=19	=19	=19	=19	=19	=19	=19	=19	=19	=19	=19	=19	=19	=19
!LO:TX:t=P:problem=mixed beam	!	!	!	!	!	!	!	!LO:MO:mod=-tris.	!	!LO:MO:mod=-tris.	!	!LO:MO:mod=-tris.	!	!LO:MO:mod=-tris.	!	!	!	!
8F#\L	.	.	8a/L	.	16ff#\LL	.	4F#\	-tris	4c#\	-tris	4a\	-tris	4ff#\	-tris	1ryy	1ryy	1ryy	1ryy
.	.	.	.	.	16cc#\	.	.	.	.	.	.	.	.	.	.	.	.	.
8B\	.	.	8b/	.	16dd\	.	.	.	.	.	.	.	.	.	.	.	.	.
.	.	.	.	.	16gg#\JJ	.	.	.	.	.	.	.	.	.	.	.	.	.
8c#\	4	.	8a/	.	8ff#\L	.	4r	.	4r	.	4r	.	4r	.	.	.	.	.
8C#/J	#	.	8g#/J	.	8ee#X\J	.	.	.	.	.	.	.	.	.	.	.	.	.
!	!	!	!	!	!	!LO:DY:t= :mod=%s	!	!	!	!	!	!	!	!	!	!	!	!
!	!	!	!	!LO:MO:mod=!null:null	!	!LO:MO:mod=!LO&colon;DY&colon;ed=brack	!	!	!	!	!	!	!	!	!	!	!	!
!	!	!	!	!LO:DY:b:rj	!	!null	!	!	!	!	!	!	!	!	!	!	!	!
4F#\	.	.	4a/	p	4ff#\	p	8r	.	2r	.	2r	.	2r	.	.	.	.	.
!	!	!	!	!	!	!	!	!LO:MO:mod=Si-	!	!	!	!	!	!	!	!	!	!
.	.	.	.	.	.	.	16F#\	ſi-	.	.	.	.	.	.	.	.	.	.
.	.	.	.	.	.	.	16F#\	-cut	.	.	.	.	.	.	.	.	.	.
8r	.	.	8r	.	8r	.	8A\	ſa-	.	.	.	.	.	.	.	.	.	.
8E#X\	6	.	8cc#\	.	8gg#\	.	8c#\	-git-	.	.	.	.	.	.	.	.	.	.
!	!	!	!	!	!LO:LB:g=original	!	!	!	!	!	!	!	!LO:LB:g=original	!	!	!	!	!
=20	=20	=20	=20	=20	=20	=20	=20	=20	=20	=20	=20	=20	=20	=20	=20	=20	=20	=20
!LO:TX:t=P:problem=mixed beam	!	!	!	!	!	!	!	!	!LO:TX:a:t=5:mod=	!	!	!	!LO:TX:a:t=1:mod=	!	!	!	!	!
8F#\L	.	.	4cc#\	.	4ff#\	.	8A\	-tae	00r	.	1r	.	1r	.	1ryy	1ryy	1ryy	1ryy
8A\	6	.	.	.	.	.	8F#\	in	.	.	.	.	.	.	.	.	.	.
!	!	!	!	!	!	!	!LO:SIC:s=(8E#X\L	!	!	!	!	!	!	!	!	!	!	!
8c#\	#	.	4b\	.	4ee#X\	.	8E#X\L	ma-	.	.	.	.	.	.	.	.	.	.
8C#/J	.	.	.	.	.	.	16F#\L	.	.	.	.	.	.	.	.	.	.	.
.	.	.	.	.	.	.	16G#\JJ	.	.	.	.	.	.	.	.	.	.	.
!LO:LB:g=original	!	!	!	!	!	!	!LO:LB:g=original	!	!	!	!	!	!	!	!	!	!	!
!!LO:MO:ori
=-	=-	=-	=-	=-	=-	=-	=-	=-	=-	=-	=-	=-	=-	=-	=-	=-	=-	=-
!!LO:MO:end
!	!	!	!	!	!LO:TX:t=P:problem=mixed beam	!	!	!	!	!	!	!	!	!	!	!	!	!
8.F#\L	.	.	8a/L	.	8ff#\L	.	8.F#\L	.	.	.	.	.	.	.	.	.	.	.
.	.	.	16f#/L	.	16f#/L	.	.	.	.	.	.	.	.	.	.	.	.	.
!	!	!	!LO:SIC:v:s=16e#/JJ	!	!LO:SIC:v:s=16e#\JJ	!	!LO:SIC:s=16E#\Jk)	!	!	!	!	!	!	!	!	!	!	!
16E#X'\Jk	.	.	16e/JJ	.	16e/JJ	.	16E#\Jk	.	.	.	.	.	.	.	.	.	.	.
16F#'\LL	.	.	16f#/LL	.	16f#/LL	.	16F#\LL	-nu	.	.	.	.	.	.	.	.	.	.
16G#'\	.	.	16g#/	.	16g#/	.	16G#\JJ	.	.	.	.	.	.	.	.	.	.	.
16A'\	.	.	16a/	.	16a/	.	16A\LL	po-	.	.	.	.	.	.	.	.	.	.
16B'\JJ	.	.	16b/JJ	.	16b/JJ	.	16B\JJ	.	.	.	.	.	.	.	.	.	.	.
=21	=21	=21	=21	=21	=21	=21	=21	=21	=21	=21	=21	=21	=21	=21	=21	=21	=21	=21
!	!	!	!	!	!	!	!	!	!	!	!	!	!LO:MO:mod=!LO&colon;TX&colon;a&colon;i&colon;t=Solo	!	!	!	!	!
!LO:TX:t=P:problem=mixed beam	!	!	!LO:TX:t=P:problem=mixed beam	!	!LO:TX:t=P:problem=mixed beam	!	!	!	!	!	!LO:TX:a:i:t=Soli:mod=Solo	!	!LO:TX:a:i:t=Solo	!	!	!	!	!
8c#\L	.	.	8cc#\L	.	8cc#\L	.	8c#\	-ten-	.	.	4r	.	4r	.	1ryy	1ryy	1ryy	1ryy
!	!	!	!	!	!	!	!	!LO:MO:mod=-tis&colon;	!	!	!	!	!	!	!	!	!	!
8C#/	.	.	8c#/	.	8c#/	.	8C#\	-tis	.	.	.	.	.	.	.	.	.	.
8C#/	#	.	8g#/	.	8ee#X\	.	4r	.	.	.	8g#\	i-	8ee#X\	i-	.	.	.	.
!	!	!	!	!	!	!	!	!	!	!	!	!LO:SIC:v:l:s=-ta	!	!	!	!	!	!
8C#/J	.	.	8g#/J	.	8ee#\J	.	.	.	.	.	8g#\	-to	8ee#\	-ta	.	.	.	.
!	!	!	!	!	!	!	!	!	!	!	!	!LO:MO:mod=fi-	!	!	!	!	!	!
8C#/L	6: 4:	.	8a/L	.	8ff#\L	.	2r	.	.	.	8a\L	Fi-	8ff#\L	fi-	.	.	.	.
8C#/	.	.	16g#/L	.	16ee#\L	.	.	.	.	.	16g#\L	.	16ee#\L	.	.	.	.	.
.	.	.	16a/JJ	.	16ff#\JJ	.	.	.	.	.	16a\JJ	.	16ff#\JJ	.	.	.	.	.
8C#/	7 5	.	8b/L	.	8gg#\L	.	.	.	.	.	8b\	-li-	8gg#\	-li-	.	.	.	.
8C#/J	5 #	.	8g#/J	.	8ee#\J	.	.	.	.	.	8g#\	-i	8ee#\	-i	.	.	.	.
=22	=22	=22	=22	=22	=22	=22	=22	=22	=22	=22	=22	=22	=22	=22	=22	=22	=22	=22
!LO:TX:t=P:problem=mixed beam	!	!	!	!	!	!	!LO:TX:a:t=3	!	!	!	!	!	!	!	!	!	!	!
8F#\L	.	.	8a/L	.	8ff#\L	.	0r	.	.	.	8a\	ex-	8ff#\	ex-	1ryy	1ryy	1ryy	1ryy
!	!	!	!	!	!	!	!	!	!	!	!	!LO:SIC:v:l:s=-cus-	!	!LO:SIC:v:l:s=-cus-	!	!	!	!
8B\	6	.	8b/	.	8gg#\	.	.	.	.	.	8b\	-cu-	8gg#\	-cu-	.	.	.	.
8c#\	4	.	8a/	.	8ff#\	.	.	.	.	.	8a\L	-ſo-	8ff#\L	-ſo-	.	.	.	.
!	!	!	!	!	!LO:SIC:v:s=8ee#\J	!	!	!	!	!	!	!	!	!	!	!	!	!
8C#/J	#	.	8g#/J	.	8ee\J	.	.	.	.	.	8g#\J	.	8ee#X\J	.	.	.	.	.
!	!	!	!LO:LB:g=original	!	!	!	!	!	!	!	!	!	!	!	!	!	!	!
!!LO:MO:ori
=-	=-	=-	=-	=-	=-	=-	=-	=-	=-	=-	=-	=-	=-	=-	=-	=-	=-	=-
!!LO:MO:end
!	!	!	!	!	!	!	!	!	!	!	!	!LO:MO:mod=-rum.	!	!LO:MO:mod=-rum.	!	!	!	!
8F#\L	.	.	4a/	.	8ff#\L	.	.	.	.	.	4a\	-rum	8ff#\	-rum	.	.	.	.
!	!	!	!	!	!	!	!	!	!	!	!	!	!	!LO:MO:mod=Be-	!	!	!	!
8F#\	.	.	.	.	16ff#\L	.	.	.	.	.	.	.	16ff#\LL	be-	.	.	.	.
.	.	.	.	.	16gg#\JJ	.	.	.	.	.	.	.	16gg#\JJ	.	.	.	.	.
8A\	6	.	8r	.	8ff#\L	.	.	.	.	.	4r	.	8ff#\	-a-	.	.	.	.
8A#X\J	5nr	.	8cc#\	.	8een\J	.	.	.	.	.	.	.	8een\	-tus	.	.	.	.
=23	=23	=23	=23	=23	=23	=23	=23	=23	=23	=23	=23	=23	=23	=23	=23	=23	=23	=23
!LO:TX:t=P:problem=mixed beam	!	!	!	!	!	!	!	!	!	!	!	!	!	!	!	!	!	!
8B\L	6_ 3_	.	8b\L	.	4dd\	.	.	.	.	.	8r	.	4dd\	vir	1ryy	1ryy	1ryy	1ryy
!	!	!	!	!	!	!	!	!	!	!	!	!LO:MO:mod=Be-	!	!	!	!	!	!
8B\	.	.	16b\L	.	.	.	.	.	.	.	16b\LL	be-	.	.	.	.	.	.
.	.	.	16cc#\JJ	.	.	.	.	.	.	.	16cc#\JJ	.	.	.	.	.	.	.
8BB/	#	.	8b\L	.	4dd#X\	.	.	.	.	.	8b\	-a-	4dd#X\	qui	.	.	.	.
8BB/J	7	.	8a\J	.	.	.	.	.	.	.	8a\	-tus	.	.	.	.	.	.
*	*	*	*tremolo	*	*	*	*	*	*	*	*	*	*	*	*	*	*	*
8E\L	8_ 3_	.	8g#/L	.	8ee\L	.	.	.	.	.	8g#\	vir	16ee\LL	im-	.	.	.	.
.	.	.	.	.	.	.	.	.	.	.	.	.	16dd#\	.	.	.	.	.
8E\	.	.	8g#/	.	16ee\L	.	.	.	.	.	16g#\	qui	16ee\	.	.	.	.	.
.	.	.	.	.	16ff#\JJ	.	.	.	.	.	16g#\	im-	16ff#\JJ	.	.	.	.	.
!	!	!	!	!	!	!	!	!	!	!	!	!	!LO:LB:g=original	!	!	!	!	!
!!LO:MO:ori
=-	=-	=-	=-	=-	=-	=-	=-	=-	=-	=-	=-	=-	=-	=-	=-	=-	=-	=-
!!LO:MO:end
8E\	7	.	8g#/	.	8ee\L	.	.	.	.	.	8g#\	-ple-	8ee\	-ple-	.	.	.	.
8E\J	n	.	8g#/J	.	8ddn\J	.	.	.	.	.	8g#\	-vit	8ddn\	-vit	.	.	.	.
*	*	*	*Xtremolo	*	*	*	*	*	*	*	*	*	*	*	*	*	*	*
!	!	!	!	!	!	!	!	!	!	!	!LO:LB:g=original	!	!	!	!	!	!	!
=24	=24	=24	=24	=24	=24	=24	=24	=24	=24	=24	=24	=24	=24	=24	=24	=24	=24	=24
!LO:TX:a:i:t=Sol:mod=	!	!	!	!	!	!	!	!	!	!	!	!	!	!	!	!	!	!
8A\L	.	.	8a/L	.	8cc#\L	.	1r	.	1r	.	8a\	de-	8cc#\	de-	1ryy	1ryy	1ryy	1ryy
8A\	.	.	8cc#/	.	8ee\	.	.	.	.	.	8cc#\	-si-	8ee\	-si-	.	.	.	.
8D\	6	.	8b/	.	8dd\	.	.	.	.	.	8b\	-de-	8dd\	-de-	.	.	.	.
8D#X\J	5	.	8a/J	.	8cc#\J	.	.	.	.	.	16a\	-ri-	16cc#\	-ri-	.	.	.	.
!	!	!	!	!	!	!	!	!	!	!	!	!	!	!LO:SIC:v:l:s=-um	!	!	!	!
.	.	.	.	.	.	.	.	.	.	.	16a\	-um	16cc#\	-am	.	.	.	.
*tremolo	*	*	*	*	*	*	*	*	*	*	*	*	*	*	*	*	*	*
8E\L	.	.	4g#/	.	4b\	.	.	.	.	.	4g#\	ſu-	4b\	ſu-	.	.	.	.
8E\	.	.	.	.	.	.	.	.	.	.	.	.	.	.	.	.	.	.
8E\	.	.	8a/L	.	8cc#\L	.	.	.	.	.	8a\	-um	8cc#\	-um	.	.	.	.
8E\J	.	.	8b/J	.	8dd\J	.	.	.	.	.	8b\	ex	8dd\	ex	.	.	.	.
*Xtremolo	*	*	*	*	*	*	*	*	*	*	*	*	*	*	*	*	*	*
=25	=25	=25	=25	=25	=25	=25	=25	=25	=25	=25	=25	=25	=25	=25	=25	=25	=25	=25
8A\L	.	.	8a/	.	4cc#\	.	2r	.	2r	.	(4.a\	ip-	(4cc#\	ip-	1ryy	1ryy	1ryy	1ryy
8F#\	.	.	4a/	.	.	.	.	.	.	.	.	.	.	.	.	.	.	.
!	!	!	!	!	!	!	!	!	!	!	!	!	!LO:SIC:s=4b\)	!	!	!	!	!
8Dn\	6 5	.	.	.	4b\	.	.	.	.	.	.	.	4b\	.	.	.	.	.
!	!	!	!	!LO:DY:b	!	!	!	!	!	!	!	!	!	!	!	!	!	!
8E\J	.	.	8g#/	f	.	.	.	.	.	.	8g#\)	.	.	.	.	.	.	.
!	!	!	!	!	!	!LO:DY:t= :mod=%s	!	!	!	!	!	!	!	!	!	!	!	!
!	!	!	!	!	!	!LO:MO:mod=!LO&colon;DY&colon;ed=brack	!	!	!	!	!	!	!	!	!	!	!	!
!	!	!	!	!	!	!null	!	!	!	!	!	!LO:MO:mod=-sis&colon;	!LO:SIC:s=4a\	!LO:MO:mod=-sis&colon;	!	!	!	!
4AA/	.	.	16a\LL	.	16a\LL	f	4r	.	4r	.	4a\	-ſis	4a\)	-sis	.	.	.	.
.	.	.	16cc#\	.	16cc#\	.	.	.	.	.	.	.	.	.	.	.	.	.
.	.	.	16ee\	.	16ee\	.	.	.	.	.	.	.	.	.	.	.	.	.
.	.	.	16aa\JJ	.	16aa\JJ	.	.	.	.	.	.	.	.	.	.	.	.	.
8r	.	.	16gg#\LL	.	16gg#\LL	.	8r	.	8r	.	8r	.	8r	.	.	.	.	.
.	.	.	16bb\	.	16bb\	.	.	.	.	.	.	.	.	.	.	.	.	.
!	!	!LO:DY:t= :mod=%s	!	!	!	!	!	!LO:MO:mod=non,	!	!LO:MO:mod=non,	!	!LO:MO:mod=non,	!	!LO:MO:mod=non,	!	!	!	!
8E\	.	f	16ee\	.	16ee\	.	8E\	non	8e\	non	8g#\	non	8b\	non	.	.	.	.
.	.	.	16gg#\JJ	.	16gg#\JJ	.	.	.	.	.	.	.	.	.	.	.	.	.
!	!	!	!	!	!LO:LB:g=original	!	!	!	!	!	!	!	!	!	!	!	!	!
=26	=26	=26	=26	=26	=26	=26	=26	=26	=26	=26	=26	=26	=26	=26	=26	=26	=26	=26
*	*	*	*	*	*	*	*	*ij	*	*ij	*	*ij	*	*ij	*	*	*	*
!	!	!	!	!	!	!	!	!LO:MO:mod=non,	!	!LO:MO:mod=non,	!	!LO:MO:mod=non,	!	!LO:MO:mod=non,	!	!	!	!
4A\	.	.	16aa\LL	.	16aa\LL	.	4A\	non	4e\	non	4a\	non	4cc#\	non	1ryy	1ryy	1ryy	1ryy
.	.	.	16cc#\	.	16cc#\	.	.	.	.	.	.	.	.	.	.	.	.	.
.	.	.	16ee\	.	16ee\	.	.	.	.	.	.	.	.	.	.	.	.	.
.	.	.	16aa\JJ	.	16aa\JJ	.	.	.	.	.	.	.	.	.	.	.	.	.
!LO:LB:g=original	!	!	!	!	!	!	!	!	!	!	!	!	!	!	!	!	!	!
!!LO:MO:ori
=-	=-	=-	=-	=-	=-	=-	=-	=-	=-	=-	=-	=-	=-	=-	=-	=-	=-	=-
!!LO:MO:end
8r	.	.	16gg#\LL	.	16gg#\LL	.	8r	.	8r	.	8r	.	8r	.	.	.	.	.
.	.	.	16bb\	.	16bb\	.	.	.	.	.	.	.	.	.	.	.	.	.
!	!	!LO:DY:b:t=fo:rj	!	!	!	!	!	!	!	!	!	!	!	!	!	!	!	!
!	!	!LO:MO:mod=.	!	!	!	!	!	!LO:MO:mod=non,	!	!LO:MO:mod=non,	!	!LO:MO:mod=non,	!	!LO:MO:mod=non,	!	!	!	!
8E\	.	f	16ee\	.	16ee\	.	8E\	non	8e\	non	8g#\	non	8b\	non	.	.	.	.
.	.	.	16gg#\JJ	.	16gg#\JJ	.	.	.	.	.	.	.	.	.	.	.	.	.
*tremolo	*	*	*	*	*	*	*	*	*	*	*	*	*	*	*	*	*	*
8A\L	.	.	16aa\LL	.	16aa\LL	.	4A\	non	4e\	non	4a\	non	4cc#\	non	.	.	.	.
*	*	*	*	*	*	*	*	*Xij	*	*Xij	*	*Xij	*	*Xij	*	*	*	*
.	.	.	16a\	.	16a\	.	.	.	.	.	.	.	.	.	.	.	.	.
8A\	.	.	16cc#\	.	16cc#\	.	.	.	.	.	.	.	.	.	.	.	.	.
.	.	.	16ee\JJ	.	16ee\JJ	.	.	.	.	.	.	.	.	.	.	.	.	.
!	!	!	!	!	!	!	!	!LO:MO:mod=con-	!	!	!	!	!	!LO:MO:mod=con-	!	!	!	!
8A\	.	.	16aa\LL	.	16aa\LL	.	8A\	Con-	8c#\	con-	8a\	con-	8ee\	Con-	.	.	.	.
.	.	.	16ee\	.	16ee\	.	.	.	.	.	.	.	.	.	.	.	.	.
8A\J	.	.	16cc#\	.	16cc#\	.	8A\	-fun-	8c#\	-fun-	8a\	-fun-	8ee\	-fun-	.	.	.	.
.	.	.	16ee\JJ	.	16ee\JJ	.	.	.	.	.	.	.	.	.	.	.	.	.
!	!	!	!LO:LB:g=original	!	!	!	!	!	!	!	!	!	!LO:LB:g=original	!	!	!	!	!
!	!	!	!	!	!	!	!	!	!	!	!	!	!LO:MO:mod==27	!LO:MO:mod==27	!	!	!	!
=27	=27	=27	=27	=27	=27	=27	=27	=27	=27	=27	=27	=27	=27-	=27-	=27	=27	=27	=27
8A\L	6: 4:	.	16ff#\LL	.	16ff#\LL	.	8A\	-de-	8d\	-de-	8a\	-de-	8ff#\	-de-	1ryy	1ryy	1ryy	1ryy
.	.	.	16dd\	.	16dd\	.	.	.	.	.	.	.	.	.	.	.	.	.
8A\	.	.	16aa\	.	16aa\	.	8A\	-tur	8d\	-tur	8a\	-tur	8ff#\	-tur	.	.	.	.
.	.	.	16ff#\JJ	.	16ff#\JJ	.	.	.	.	.	.	.	.	.	.	.	.	.
!	!	!	!	!	!	!	!LO:LB:g=original	!	!	!	!	!	!	!	!	!	!	!
!!LO:MO:ori
=-	=-	=-	=-	=-	=-	=-	=-	=-	=-	=-	=-	=-	=-	=-	=-	=-	=-	=-
!!LO:MO:end
!	!	!	!	!	!	!	!	!	!	!	!	!LO:MO:mod=cum	!	!	!	!	!	!
8A\	5 3	.	16ff#\LL	.	16ff#\LL	.	8A\	cum	8c#\	cum	8a\	Cum	8ee\	cum	.	.	.	.
.	.	.	16ee\	.	16ee\	.	.	.	.	.	.	.	.	.	.	.	.	.
8A\J	.	.	16cc#\	.	16cc#\	.	8A\	lo-	8c#\	lo-	8a\	lo-	8ee\	lo-	.	.	.	.
.	.	.	16ee\JJ	.	16ee\JJ	.	.	.	.	.	.	.	.	.	.	.	.	.
*	*	*	*	*	*	*	*2\right	*	*2\right	*	*2\right	*	*2\right	*	*	*	*	*
!	!	!	!	!	!	!	!	!LO:MO:mod=-que-	!	!LO:MO:mod=-que-	!	!	!	!	!	!	!	!
8E\L	7	.	16ee\LL	.	16ee\LL	.	2E\	-quae-	2B\	-qve-	2g#\	-que-	2dd\	-que-	.	.	.	.
.	.	.	16dd\	.	16dd\	.	.	.	.	.	.	.	.	.	.	.	.	.
8E\	.	.	16bb\	.	16bb\	.	.	.	.	.	.	.	.	.	.	.	.	.
.	.	.	16gg#\JJ	.	16gg#\JJ	.	.	.	.	.	.	.	.	.	.	.	.	.
8E\	.	.	16ee\LL	.	16ee\LL	.	.	.	.	.	.	.	.	.	.	.	.	.
.	.	.	16dd\	.	16dd\	.	.	.	.	.	.	.	.	.	.	.	.	.
8E\J	.	.	16b\	.	16b\	.	.	.	.	.	.	.	.	.	.	.	.	.
.	.	.	16dd\JJ	.	16dd\JJ	.	.	.	.	.	.	.	.	.	.	.	.	.
=28	=28	=28	=28	=28	=28	=28	=28	=28	=28	=28	=28	=28	=28	=28	=28	=28	=28	=28
8A\L	.	.	16dd\LL	.	16dd\LL	.	4A\	-tur	4c#\	-tur	4a\	-tur	4cc#\	-tur	1ryy	1ryy	1ryy	1ryy
.	.	.	16cc#\	.	16cc#\	.	.	.	.	.	.	.	.	.	.	.	.	.
8A\	.	.	16ee\	.	16ee\	.	.	.	.	.	.	.	.	.	.	.	.	.
.	.	.	16cc#\JJ	.	16cc#\JJ	.	.	.	.	.	.	.	.	.	.	.	.	.
!	!	!	!	!	!	!	!	!	!LO:LB:g=original	!	!	!	!	!	!	!	!	!
!!LO:MO:ori
=-	=-	=-	=-	=-	=-	=-	=-	=-	=-	=-	=-	=-	=-	=-	=-	=-	=-	=-
!!LO:MO:end
8A\	3	.	16a\LL	.	16a\LL	.	8A\	i-	8c#\	i-	8a\	i-	8ee\	i-	.	.	.	.
.	.	.	16cc#\	.	16cc#\	.	.	.	.	.	.	.	.	.	.	.	.	.
8A\J	.	.	16ee\	.	16ee\	.	8A\	-ni-	8c#\	-ni-	8a\	-ni-	8ee\	-ni-	.	.	.	.
.	.	.	16aa\JJ	.	16aa\JJ	.	.	.	.	.	.	.	.	.	.	.	.	.
8D\L	4 2	.	16gg#\LL	.	16gg#\LL	.	4D\	-mi-	4d\	-mi-	4a\	-mi-	4ff#\	-mi-	.	.	.	.
.	.	.	16ff#\	.	16ff#\	.	.	.	.	.	.	.	.	.	.	.	.	.
8D\	.	.	16ff#\	.	16ff#\	.	.	.	.	.	.	.	.	.	.	.	.	.
.	.	.	16aa\JJ	.	16aa\JJ	.	.	.	.	.	.	.	.	.	.	.	.	.
8D\	.	.	16aa\LL	.	16aa\LL	.	4D\	-cis	4B\	-cis	4g#\	-cis	4ee\	-cis	.	.	.	.
.	.	.	16gg#\	.	16gg#\	.	.	.	.	.	.	.	.	.	.	.	.	.
8D\J	.	.	16gg#\	.	16gg#\	.	.	.	.	.	.	.	.	.	.	.	.	.
.	.	.	16bb\JJ	.	16bb\JJ	.	.	.	.	.	.	.	.	.	.	.	.	.
*Xtremolo	*	*	*	*	*	*	*	*	*	*	*	*	*	*	*	*	*	*
=29	=29	=29	=29	=29	=29	=29	=29	=29	=29	=29	=29	=29	=29	=29	=29	=29	=29	=29
8C#/L	6_	.	16bb\LL	.	16bb\LL	.	4C#/	ſu-	4c#\	ſu-	4a\	su-	4ee\	ſu-	1ryy	1ryy	1ryy	1ryy
.	.	.	16aa\	.	16aa\	.	.	.	.	.	.	.	.	.	.	.	.	.
8C#/	.	.	16gg#\	.	16gg#\	.	.	.	.	.	.	.	.	.	.	.	.	.
.	.	.	16aa\JJ	.	16aa\JJ	.	.	.	.	.	.	.	.	.	.	.	.	.
8D/	4_ 2_	.	16gg#\LL	.	16gg#\LL	.	8D/	is	8B\	-is	8g#\	-is	8ee\	-is	.	.	.	.
.	.	.	16bb\	.	16bb\	.	.	.	.	.	.	.	.	.	.	.	.	.
8D/J	.	.	16ee\	.	16ee\	.	8D/	in	8B\	in	8g#\	in	8ee\	in	.	.	.	.
.	.	.	16gg#\JJ	.	16gg#\JJ	.	.	.	.	.	.	.	.	.	.	.	.	.
!	!	!	!	!	!LO:LB:g=original	!	!	!	!	!	!LO:LB:g=original	!	!	!	!	!	!	!
!!LO:MO:ori
=-	=-	=-	=-	=-	=-	=-	=-	=-	=-	=-	=-	=-	=-	=-	=-	=-	=-	=-
!!LO:MO:end
!	!	!	!	!	!	!	!	!	!LO:SIC:s=(8c#\	!	!LO:SIC:s=(4.a\	!	!LO:SIC:s=(8ee\L	!	!	!	!	!
8C#/L	6	.	8aa\L	.	8aa\	.	8C#\L	por-	8c#\	por-	4.a\	por-	8ee\L	por-	.	.	.	.
8F#/	.	.	8cc#\J	.	4aa\	.	8F#\	.	4f#\	.	.	.	8cc#\J	.	.	.	.	.
!	!	!	!	!	!	!	!	!	!	!	!	!	!LO:SIC:s=4b\)	!	!	!	!	!
8D/	6 5	.	4b\	.	.	.	8D\	.	.	.	.	.	4b\	.	.	.	.	.
!	!	!	!	!	!	!	!	!	!LO:SIC:s=8e\)	!	!LO:SIC:s=8g#\)	!	!	!	!	!	!	!
8E/J	.	.	.	.	8gg#\	.	8E\J	.	8e\	.	8g#\	.	.	.	.	.	.	.
!	!	!	!LO:LB:g=original	!	!	!	!	!	!	!	!	!	!	!	!	!	!	!
=30	=30	=30	=30	=30	=30	=30	=30	=30	=30	=30	=30	=30	=30	=30	=30	=30	=30	=30
*tremolo	*	*	*	*	*	*	*	*	*	*	*	*	*	*	*	*	*	*
!	!	!	!	!LO:MO:mod=!null:null	!	!LO:MO:mod=!null:null	!	!	!	!	!	!	!LO:MO:mod=!LO&colon;TX&colon;a&colon;i&colon;t=Solo	!	!	!	!	!
!LO:TX:a:i:t=Soli:mod=Solo	!	!	!	!LO:DY:b:rj	!	!LO:DY:b:rj	!	!LO:MO:mod=-ta.	!	!LO:MO:mod=-ta.	!LO:TX:a:i:t=Sol:mod=Solo	!LO:MO:mod=-ta.	!LO:TX:a:rj:i:t=Soli	!LO:MO:mod=-ta.	!	!	!	!
8AA/L	.	.	4cc#\	p	8aa\L	p	4AA/	-ta	8e\	-ta	8a\	-ta	8cc#\	-ta	1ryy	1ryy	1ryy	1ryy
!	!	!	!	!	!LO:SIC:v:s=8dd\J	!	!	!	!	!	!LO:SIC:v:s=8b\	!	!	!	!	!	!	!
8AA/	.	.	.	.	8ee\J	.	.	.	8r	.	8cc#\	Glo-	8dd\	Glo-	.	.	.	.
8AA/	.	.	16cc#\LL	.	16ee\LL	.	4r	.	4r	.	16cc#\LL	-ri-	16ee\LL	-ri-	.	.	.	.
.	.	.	16b\	.	16dd\	.	.	.	.	.	16b\JJ	.	16dd\JJ	.	.	.	.	.
8AA/J	.	.	16a\	.	16cc#\	.	.	.	.	.	16a\LL	-a	16cc#\LL	-a	.	.	.	.
.	.	.	16b\JJ	.	16dd\JJ	.	.	.	.	.	16b\JJ	.	16dd\JJ	.	.	.	.	.
!	!	!	!	!	!	!	!	!	!	!	!	!	!LO:LB:g=original	!	!	!	!	!
!!LO:MO:ori
=-	=-	=-	=-	=-	=-	=-	=-	=-	=-	=-	=-	=-	=-	=-	=-	=-	=-	=-
!!LO:MO:end
8AA/L	.	.	8cc#\L	.	8ee\L	.	2r	.	2r	.	8cc#\	Pa-	8ee\	Pa-	.	.	.	.
!	!	!	!	!	!	!	!	!	!	!	!	!LO:MO:mod=-tri,	!	!LO:MO:mod=-tri,	!	!	!	!
8AA/	.	.	16b\L	.	16dd\L	.	.	.	.	.	16b\	-tri	16dd\	-tri	.	.	.	.
.	.	.	16a\JJ	.	16cc#\JJ	.	.	.	.	.	16a\	et	16cc#\	et	.	.	.	.
!	!	!	!	!	!	!	!	!	!	!	!	!LO:MO:mod=Fi-	!	!LO:MO:mod=Fi-	!	!	!	!
8AA/	.	.	8b\L	.	8dd\L	.	.	.	.	.	8b\	fi-	8dd\	fi-	.	.	.	.
8AA/J	.	.	8a\J	.	8cc#\J	.	.	.	.	.	8a\	-li-	8cc#\	-li-	.	.	.	.
=31	=31	=31	=31	=31	=31	=31	=31	=31	=31	=31	=31	=31	=31	=31	=31	=31	=31	=31
!	!	!	!	!	!	!	!LO:TX:a:t=2:mod=	!	!LO:TX:a:t=2:mod=	!	!	!LO:MO:mod=-o,	!	!LO:MO:mod=-o,	!	!	!	!
8E\L	7	.	8g#/L	.	8b\L	.	0r	.	0r	.	8g#\	-o	8b\	-o	1ryy	1ryy	1ryy	1ryy
8E\	.	.	16g#/L	.	16b\L	.	.	.	.	.	16g#\LL	et	16b\LL	et	.	.	.	.
.	.	.	16a/JJ	.	16cc#\JJ	.	.	.	.	.	16a\JJ	.	16cc#\JJ	.	.	.	.	.
!	!	!	!	!	!	!	!	!	!	!	!	!LO:MO:mod=Spi-	!	!LO:MO:mod=Spi-	!	!	!	!
8E\	.	.	8b\L	.	8dd\L	.	.	.	.	.	8b\	ſpi-	8dd\	ſpi-	.	.	.	.
8E\J	.	.	8b\J	.	8dd\J	.	.	.	.	.	8b\	-ri-	8dd\	-ri-	.	.	.	.
*Xtremolo	*	*	*	*	*	*	*	*	*	*	*	*	*	*	*	*	*	*
!	!	!	!	!	!	!	!	!	!	!	!LO:SIC:s=(16a\LL	!	!LO:SIC:s=(16cc#\LL	!	!	!	!	!
8A\L	.	.	16a/LL	.	16cc#\LL	.	.	.	.	.	16a\LL	-tu-	16cc#\LL	-tu-	.	.	.	.
.	.	.	16g#/	.	16b\	.	.	.	.	.	16g#\	.	16b\	.	.	.	.	.
8A\	.	.	16a/	.	16cc#\	.	.	.	.	.	16a\	.	16cc#\	.	.	.	.	.
.	.	.	16b/JJ	.	16dd\JJ	.	.	.	.	.	16b\JJ	.	16dd\JJ	.	.	.	.	.
!	!	!	!	!	!	!	!	!	!	!	!	!	!LO:SIC:s=8ee\L	!	!	!	!	!
8G#\	6	.	8cc#\L	.	8ee\L	.	.	.	.	.	8cc#\L	.	8ee\	.	.	.	.	.
!	!	!	!	!	!	!	!	!	!	!	!LO:SIC:s=8b\J)	!	!LO:SIC:s=8dd\J)	!	!	!	!	!
8G#\J	5	.	8b\J	.	8dd\J	.	.	.	.	.	8b\J	.	8dd\	.	.	.	.	.
=32	=32	=32	=32	=32	=32	=32	=32	=32	=32	=32	=32	=32	=32	=32	=32	=32	=32	=32
!LO:TX:t=P:problem=mixed beam	!	!	!	!	!	!	!	!	!	!	!	!LO:MO:null:mod=-i	!	!	!	!	!	!
8A\L	6	.	16a\LL	.	16cc#\LL	.	.	.	.	.	16a\LL	.	16cc#\LL	-i	1ryy	1ryy	1ryy	1ryy
!	!	!	!	!	!	!	!	!	!	!	!LO:SIC:s=16cc#\	!	!	!	!	!	!	!
.	.	.	16cc#\	.	16ee\	.	.	.	.	.	16cc#\JJ	.	16ee\	.	.	.	.	.
!	!	!	!	!	!	!	!	!	!	!	!LO:SIC:s=16dd\	!LO:MO:mod=.	!	!	!	!	!	!
8D/	.	.	16dd\	.	16ff#\	.	.	.	.	.	16dd\LL	-i	16ff#\	.	.	.	.	.
.	.	.	16b\JJ	.	16dd\JJ	.	.	.	.	.	16b\JJ	.	16dd\JJ	.	.	.	.	.
!	!	!	!	!	!	!LO:DY:b:rj	!	!	!	!	!	!LO:MO:mod=San-	!	!LO:MO:mod=San-	!	!	!	!
!	!	!	!	!	!	!LO:MO:mod=.	!	!	!	!	!	!	!	!	!	!	!	!
8E/	4	.	8a/L	.	8cc#\L	f	.	.	.	.	8a\L	ſan-	8cc#\L	ſan-	.	.	.	.
8EE/J	3	.	8g#/J	.	8b\J	.	.	.	.	.	8g#\J	.	8b\J	.	.	.	.	.
!	!	!	!	!LO:MO:mod=!null:null	!	!LO:DY:t= :mod=%s	!	!	!	!	!	!	!	!	!	!	!	!
!	!	!	!	!LO:DY:b:rj	!	!null	!	!	!	!	!	!LO:MO:mod=-cto.	!	!LO:MO:mod=-cto.	!	!	!	!
4AA/	.	.	16a/LL	f	16a\LL	f	.	.	.	.	4a\	-cto	4a\	-cto	.	.	.	.
.	.	.	16cc#/	.	16cc#\	.	.	.	.	.	.	.	.	.	.	.	.	.
.	.	.	16a/	.	16a\	.	.	.	.	.	.	.	.	.	.	.	.	.
.	.	.	16e/JJ	.	16e\JJ	.	.	.	.	.	.	.	.	.	.	.	.	.
4r	.	.	16c#/LL	.	16c#/LL	.	.	.	.	.	4r	.	4r	.	.	.	.	.
.	.	.	16A/	.	16A/	.	.	.	.	.	.	.	.	.	.	.	.	.
.	.	.	16c#/	.	16c#/	.	.	.	.	.	.	.	.	.	.	.	.	.
.	.	.	16e/JJ	.	16e/JJ	.	.	.	.	.	.	.	.	.	.	.	.	.
!	!	!	!	!	!	!	!	!	!	!	!	!	!LO:PB:g=original	!	!	!	!	!
=33	=33	=33	=33	=33	=33	=33	=33	=33	=33	=33	=33	=33	=33	=33	=33	=33	=33	=33
*tremolo	*	*	*	*	*	*	*	*	*	*	*	*	*	*	*	*	*	*
!	!	!LO:MO:mod=!null:null	!	!	!	!	!	!	!	!	!	!	!	!	!	!	!	!
!	!	!LO:DY:b:t=fo	!	!	!	!	!	!	!	!	!	!	!	!	!	!	!	!
8A\L	.	f	32a\LLL	.	32cc#\LLL	.	4r	.	4r	.	4r	.	4r	.	1ryy	1ryy	1ryy	1ryy
.	.	.	32b\	.	32dd\	.	.	.	.	.	.	.	.	.	.	.	.	.
.	.	.	32cc#\	.	32ee\	.	.	.	.	.	.	.	.	.	.	.	.	.
.	.	.	32b\JJ	.	32dd\JJ	.	.	.	.	.	.	.	.	.	.	.	.	.
8A\	.	.	8a\J	.	8cc#\J	.	.	.	.	.	.	.	.	.	.	.	.	.
!	!	!	!	!	!	!	!	!LO:MO:mod=Si-	!	!	!	!LO:MO:mod=Si-	!	!	!	!	!	!
8A\	.	.	8r	.	8r	.	8A\	ſi-	8e\	Si-	8a\	ſi-	8cc#\	Si-	.	.	.	.
8A\J	.	.	8e/	.	16a\LL	.	8A\	-cut	8e\	-cut	8a\	-cut	8cc#\	-cut	.	.	.	.
.	.	.	.	.	16cc#\JJ	.	.	.	.	.	.	.	.	.	.	.	.	.
!	!	!	!LO:PB:g=original	!	!LO:LB:g=original	!	!LO:LB:g=original	!	!	!	!	!	!	!	!	!	!	!
!!LO:MO:ori
=-	=-	=-	=-	=-	=-	=-	=-	=-	=-	=-	=-	=-	=-	=-	=-	=-	=-	=-
!!LO:MO:end
!	!	!	!LO:SIC:s=(32g#/LLL	!	!	!	!	!	!	!	!	!	!	!	!	!	!	!
8E\L	.	.	32g#/LLL	.	(32b\LLL	.	4r	.	4r	.	4r	.	4r	.	.	.	.	.
.	.	.	32a/	.	32cc#\	.	.	.	.	.	.	.	.	.	.	.	.	.
.	.	.	32b/	.	32dd\	.	.	.	.	.	.	.	.	.	.	.	.	.
!	!	!	!LO:SIC:s=32a/JJ)	!	!	!	!	!	!	!	!	!	!	!	!	!	!	!
.	.	.	32a/JJ	.	32cc#\JJ)	.	.	.	.	.	.	.	.	.	.	.	.	.
!	!	!	!LO:SIC:s=8g#'/J	!	!	!	!	!	!	!	!	!	!	!	!	!	!	!
8E\	.	.	8g#/J	.	8b'\J	.	.	.	.	.	.	.	.	.	.	.	.	.
*	*	*	*	*	*	*	*	*	*	*	*	*null:null	*	*	*	*	*	*
*	*	*	*	*	*	*	*	*	*	*	*	*ij	*	*	*	*	*	*
!	!	!	!	!	!	!	!	!	!	!	!	!LO:MO:mod=e-	!	!	!	!	!	!
8E\	.	.	8r	.	8r	.	8E\	e-	8e\	e-	8g#\	ſi-	8b\	e-	.	.	.	.
!	!	!	!	!	!	!	!	!LO:MO:mod=-rat,	!	!LO:MO:mod=-rat,	!	!LO:MO:mod=-rat,	!	!LO:MO:mod=-rat,	!	!	!	!
8E\J	.	.	16g#/LL	.	16b\LL	.	8E\	-rat	8e\	-rat	8g#\	-cut	8b\	-rat	.	.	.	.
*	*	*	*	*	*	*	*	*	*	*	*	*Xij	*	*	*	*	*	*
.	.	.	16b/JJ	.	16dd\JJ	.	.	.	.	.	.	.	.	.	.	.	.	.
*Xtremolo	*	*	*	*	*	*	*	*	*	*	*	*	*	*	*	*	*	*
!	!	!	!	!	!	!	!	!	!	!	!LO:LB:g=original	!	!	!	!	!	!	!
=34	=34	=34	=34	=34	=34	=34	=34	=34	=34	=34	=34	=34	=34	=34	=34	=34	=34	=34
*	*	*	*	*	*	*	*	*	*	*ij	*	*	*	*	*	*	*	*
8A\L	.	.	16b/LL	.	16dd\LL	.	8A\	e-	8e\	e-	8a\	e-	8cc#\	e-	1ryy	1ryy	1ryy	1ryy
.	.	.	16a/	.	16cc#\	.	.	.	.	.	.	.	.	.	.	.	.	.
8A\	.	.	16a/	.	16cc#\	.	8A\	-rat	8e\	-rat	8cc#\	-rat	8ee\	-rat	.	.	.	.
*	*	*	*	*	*	*	*	*	*	*Xij	*	*	*	*	*	*	*	*
.	.	.	16cc#/JJ	.	16ee\JJ	.	.	.	.	.	.	.	.	.	.	.	.	.
!	!	!	!	!	!	!	!	!	!LO:LB:g=original	!	!	!	!	!	!	!	!	!
!!LO:MO:ori
=-	=-	=-	=-	=-	=-	=-	=-	=-	=-	=-	=-	=-	=-	=-	=-	=-	=-	=-
!!LO:MO:end
8D\	6	.	16cc#/LL	.	16ee\LL	.	8D\	in	8f#\	in	16cc#\LL	in	16ee\LL	in	.	.	.	.
.	.	.	16b/	.	16dd\	.	.	.	.	.	16b\JJ	.	16dd\JJ	.	.	.	.	.
8D#X\J	5	.	16b/	.	16dd\	.	8D#X\	prin-	8f#\	prin-	16b\LL	prin-	16dd\LL	prin-	.	.	.	.
.	.	.	16a/JJ	.	16cc#\JJ	.	.	.	.	.	16a\JJ	.	16cc#\JJ	.	.	.	.	.
!LO:TX:t=P:problem=mixed beam	!	!	!	!	!	!	!	!	!	!	!	!	!	!	!	!	!	!
8E\L	4	.	8a/L	.	8cc#\L	.	16E\	-ci-	16e\	-ci-	16a\	-ci-	16cc#\	-ci-	.	.	.	.
.	.	.	.	.	.	.	16E\	-pi-	16e\	-pi-	16a\	-pi-	16cc#\	-pi-	.	.	.	.
!	!	!	!	!	!	!	!	!LO:MO:mod=-o,	!	!LO:MO:mod=-o,	!	!LO:MO:mod=-o,	!	!LO:MO:mod=-o,	!	!	!	!
8EE/J	3	.	8g#/J	.	8b\J	.	8E\	-o	8e\	-o	8g#\	-o	8b\	-o	.	.	.	.
8r	.	.	16e/LL	.	16e/LL	.	8r	.	8r	.	8r	.	8r	.	.	.	.	.
.	.	.	16g#/JJ	.	16g#/	.	.	.	.	.	.	.	.	.	.	.	.	.
!	!	!	!	!	!	!	!	!	!	!LO:MO:mod=et	!	!	!	!	!	!	!	!
8G#\	6	.	16b\LL	.	16b/	.	8G#\	et	8e\	&	8g#\	et	8b\	et	.	.	.	.
.	.	.	16dd\JJ	.	16dd/JJ	.	.	.	.	.	.	.	.	.	.	.	.	.
!LO:LB:g=original	!	!	!	!	!	!	!	!	!	!	!	!	!	!	!	!	!	!
=35	=35	=35	=35	=35	=35	=35	=35	=35	=35	=35	=35	=35	=35	=35	=35	=35	=35	=35
!	!	!	!	!	!	!	!	!LO:MO:mod=nunc,	!	!LO:MO:mod=nunc,	!	!LO:MO:mod=nunc,	!	!LO:MO:mod=nunc,	!	!	!	!
8A\L	.	.	16dd\LL	.	16dd\LL	.	8A\	nunc	8e\	nunc	8a\	nunc	8cc#\	nunc	1ryy	1ryy	1ryy	1ryy
.	.	.	16cc#\	.	16cc#\	.	.	.	.	.	.	.	.	.	.	.	.	.
!	!	!	!	!	!	!	!	!	!	!LO:MO:mod=et	!	!	!	!	!	!	!	!
8A\	.	.	16aa\	.	16aa\	.	8A\	et	8e\	&	8a\	et	8cc#\	et	.	.	.	.
.	.	.	16gg#\JJ	.	16gg#\JJ	.	.	.	.	.	.	.	.	.	.	.	.	.
8C#/	.	.	16aa\LL	.	16aa\LL	.	8C#/	ſem-	8e\	sem-	8a\	ſem-	8ee\	ſem-	.	.	.	.
.	.	.	16gg#\	.	16gg#\	.	.	.	.	.	.	.	.	.	.	.	.	.
!	!	!	!	!	!	!	!	!LO:MO:mod=-per,	!	!LO:MO:mod=-per,	!	!LO:MO:mod=-per,	!	!LO:MO:mod=-per,	!	!	!	!
8C#/J	.	.	16ff#\	.	16ff#\	.	8C#/	-per	8e\	-per	8a\	-per	8ee\	-per	.	.	.	.
.	.	.	16ee\JJ	.	16ee\JJ	.	.	.	.	.	.	.	.	.	.	.	.	.
!	!	!	!LO:SIC:v:s=8qee#/	!	!LO:SIC:s=8qee#/	!	!	!	!	!	!	!	!	!	!	!	!	!
.	.	.	4qqee/	.	8qqee#X/	.	.	.	.	.	.	.	.	.	.	.	.	.
*tremolo	*	*	*	*	*	*	*	*	*	*	*	*	*	*	*	*	*	*
!	!	!	!	!	!	!	!LO:SIC:s=8D\	!	!	!LO:MO:mod=et	!	!	!	!	!	!	!	!
8D\L	.	.	8ff#\	.	8ff#\	.	8Dn\	et	8d\	&	8a\	et	8ff#\	et	.	.	.	.
8D\	.	.	4ff#\	.	4ff#\	.	8D\	in	8d\	in	8a\	in	8ff#\	in	.	.	.	.
!	!	!	!	!	!	!	!	!	!	!	!LO:MO:mod=!null:null	!	!	!	!	!	!	!
!	!	!	!	!	!	!	!	!	!	!	!LO:N:vis=16	!	!	!	!	!	!	!
!	!	!	!	!	!	!	!	!	!	!LO:SIC:v:l:s=sae-	!	!LO:SIC:v:l:s=sae-	!	!LO:SIC:v:l:s=sae-	!	!	!	!
8D\	.	.	.	.	.	.	8D\	ſae-	8d\	ſe-	8a\	ſe-	8ff#\	ſe-	.	.	.	.
8D\J	.	.	16aa\LL	.	16aa\LL	.	16D\	-cu-	16d\	-cu-	16a\	-cu-	16ff#\	-cu-	.	.	.	.
.	.	.	16ff#\JJ	.	16ff#\JJ	.	16D\	-la	16d\	-la	16a\	-la	16ff#\	-la	.	.	.	.
*Xtremolo	*	*	*	*	*	*	*	*	*	*	*	*	*	*	*	*	*	*
!	!	!	!	!	!	!	!LO:LB:g=original	!	!	!	!	!	!LO:LB:g=original	!	!	!	!	!
=36	=36	=36	=36	=36	=36	=36	=36	=36	=36	=36	=36	=36	=36	=36	=36	=36	=36	=36
!LO:TX:t=P:problem=mixed beam	!	!	!	!	!	!	!	!	!	!LO:SIC:v:l:s=sae-	!	!LO:SIC:v:l:s=sae-	!	!LO:SIC:v:l:s=sae-	!	!	!	!
8C#\L	6	.	16ee\LL	.	24ee\LL	.	8C#/	ſae-	8e\	ſe-	8a\	ſe-	8ee\	ſe-	1ryy	1ryy	1ryy	1ryy
.	.	.	.	.	24dd\	.	.	.	.	.	.	.	.	.	.	.	.	.
.	.	.	16cc#\JJ	.	.	.	.	.	.	.	.	.	.	.	.	.	.	.
.	.	.	.	.	24ee\JJ	.	.	.	.	.	.	.	.	.	.	.	.	.
!	!	!	!LO:SIC:s=8qee/	!	!	!	!	!	!	!	!	!	!	!	!	!	!	!
.	.	.	8qqee/	.	.	.	.	.	.	.	.	.	.	.	.	.	.	.
*	*	*	*	*	*	*	*	*	*	*	*	*	*Xtuplet	*	*	*	*	*
8D\	6	.	24dd\LL	.	24ff#\LL	.	8D/	-cu-	8f#\	-cu-	8b\	-cu-	24ff#\LL	-cu-	.	.	.	.
.	.	.	24cc#\	.	24ee\	.	.	.	.	.	.	.	24ee\	.	.	.	.	.
.	.	.	24b\JJ	.	24dd\JJ	.	.	.	.	.	.	.	24dd\JJ	.	.	.	.	.
8E\	4	.	8a/L	.	8cc#\L	.	4E\	-lo-	4e\	-lo-	8a\L	-lo-	8cc#\L	-lo-	.	.	.	.
8EE/J	3	.	8g#/J	.	8b\J	.	.	.	.	.	8g#\J	.	8b\J	.	.	.	.	.
!	!	!	!LO:LB:g=original	!	!	!	!	!	!	!	!	!	!	!	!	!	!	!
!!LO:MO:ori
=-	=-	=-	=-	=-	=-	=-	=-	=-	=-	=-	=-	=-	=-	=-	=-	=-	=-	=-
!!LO:MO:end
!LO:TX:t=P:problem=mixed beam	!	!	!	!	!	!	!	!LO:MO:mod=-rum.	!	!LO:MO:mod=-rum.	!	!LO:MO:mod=-rum.	!	!LO:MO:mod=-rum.	!	!	!	!
8AA/L	.	.	8a\L	.	8cc#\	.	8AA/	-rum	8e\	-rum	8a\	-rum	8cc#\	-rum	.	.	.	.
!	!	!	!	!	!	!	!LO:SIC:s=8F#\L	!	!	!LO:MO:mod=A-	!LO:SIC:s=(4a\	!LO:MO:mod=A-	!LO:SIC:s=(8cc#\	!LO:MO:mod=A-	!	!	!	!
8F#\	.	.	8cc#\J	.	4aa\	.	8F#\	A-	(4f#\	a-	4a\	a-	8cc#\	a-	.	.	.	.
!	!	!	!	!	!	!	!LO:SIC:s=8D\	!	!	!	!	!	!LO:SIC:s=4b\)	!	!	!	!	!
8D\	6 5	.	4b\	.	.	.	8D\L	.	.	.	.	.	4b\	.	.	.	.	.
!	!	!	!	!	!	!	!	!	!	!	!LO:SIC:s=8g#\)	!	!	!	!	!	!	!
8E\J	.	.	.	.	8gg#\	.	8E\J	.	8e\)	.	8g#\	.	.	.	.	.	.	.
!	!	!	!	!	!LO:LB:g=original	!	!	!	!	!	!	!	!	!	!	!	!	!
=37	=37	=37	=37	=37	=37	=37	=37	=37	=37	=37	=37	=37	=37	=37	=37	=37	=37	=37
!	!	!	!	!	!	!	!	!LO:MO:mod=-men.	!	!LO:MO:mod=-men.	!	!LO:MO:mod=-men.	!	!LO:MO:mod=-men.	!	!	!	!
4AA/	.	.	4e\ 4cc#	.	4e\ 4cc# 4aa	.	4AA/	-men	4e\	-men	4a\	-men	4cc#\	-men	1ryy	1ryy	1ryy	1ryy
4r	.	.	4r	.	4r	.	4r	.	4r	.	4r	.	4r	.	.	.	.	.
2r	.	.	2r	.	2r	.	2r	.	2r	.	2r	.	2r	.	.	.	.	.
!	!	!	!LO:LB:g=original	!	!LO:PB:g=original	!	!LO:LB:g=original	!	!LO:LB:g=original	!	!LO:PB:g=original	!	!LO:LB:g=original	!	!	!	!	!
==	==	==	==	==	==	==	==	==	==	==	==	==	==	==	==	==	==	==
*-	*-	*-	*-	*-	*-	*-	*-	*-	*-	*-	*-	*-	*-	*-	*-	*-	*-	*-
!!!system-decoration: [(g1)][(g2)][(g3)][(g4)]g5
!!!RDF**kern: < = below
!!!RDF**kern: > = above
!!!filter-modern: sic -sq | autostem -r | tie -s | humtr -p | shed -e "s/^(\d+[\/\\]right)/$1yy/I; s/^(\d+[\/\\]left)/$1yy/I" | shed -e "s/TX(.*):t=P:/tx$1:t=P:/LG" | modori -m
!!!ENC: Andrzej Kubiczek
!!!END: 2020-07-18
!!!ENC: Marta Chmielewska
!!!END: 2022-01-17
!!!ENC-modern: Katarzyna Serwa
!!!END-modern: 2022-07-02
!!!YEC: Copyright 2022 Narodowy Instytut Fryderyka Chopina (https://polishscores.org)
!!!YEM: License CC-BY-4.0 (https://creativecommons.org/licenses/by/4.0)
